!!!!SEGMENT: pl-wnifc--6816-n_lubowski-jozef--fantaisie-sur-des-themes-slaves.krn
!!!cenid: 18xx:4056
!!!COM: Lubowski, Józef
!!!COM-rismID: pe50042965
!!!CDT: 1824-1855
!!!CNT:
!!!OTL: Fantaisie sur des thèmes Slaves
!!!PDT:
!!!AGN:
!!!SMS-siglum: PL-Wnifc
!!!SMS-shelfmark: 6816/n
!!!SMS-shelfwork: W
!!!SMS-variant:
!!!SMS-altvar:
!!!NIFC-rismSourceID: 1001134557
!!!NIFC-rismChildID: 1001134557
!!!NIFC-islandoraID: nifc:213668
!!!URL-pdf-islandora: https://repozytorium.nifc.pl/islandora/object/nifc%3A213668/datastream/PDF/view
!!!OMD: Maestoso.
!!!system-decoration: {(s1,s2)}
!!!AIN: 1 empty
!!!key:
**kern	**kern	**dynam
*part1	*part1	*part1
*staff2	*staff1	*
*Iempty	*Ipiano	*
*	*I"PIANO.	*
*clefF4	*clefG2	*
*k[f#c#g#d#a#e#]	*k[f#c#g#d#a#e#]	*
*F#:	*F#:	*
*M4/4	*M4/4	*
*met(c)	*met(c)	*
*>[A,B,C,D,E,F,G,H,I,J,J,K,L]	*>[A,B,C,D,E,F,G,H,I,J,J,K,L]	*
=1	=1	=1
*>A	*>A	*
!	!	!LO:DY:b:rj
2f# 2F#\	2fff# 2ff#\	f
4.e# 4.E#\	4.eee# 4.ee#\	.
(>8f# &(<8F#\	(>8fff# &(<8ff#\	.
=2	=2	=2
1F#) 1FF#&)	1ff#) 1f#&)	.
=3	=3	=3
*	*^	*
2B 2F# 2BB\	2dd#/	2f# 2d#\	.
4.B 4.F# 4.BB\	4.b/	4.f# 4.d#\	.
8B 8F# 8BB\	8dd#/	8f# 8d#\	.
*	*v	*v	*
=4	=4	=4
1A# 1C# 1FF#	1cc# 1f# 1c#	.
=5	=5	=5
*	*^	*
2d# 2A# 2D#\	2ff#/	2dd# 2a# 2f#\	.
4.e# 4.c# 4.G# 4.C#\	4.gg#/	4.cc# 4.g#\	.
8e# 8c# 8G# 8C#\	8cc#/	8b 8g#\	.
=6	=6	=6	=6
4A# 4C# 4FF#/	4aa#/	4cc# 4f#\	.
4F# 4FF# 4FFF#/	4ryy	4ryy	.
*clefG2	*	*	*
*	*8va	*	*
[>2ff#\	[>2ffff# [<2fff#\	2ryy	.
!!LO:LB:g=original
*	*v	*v	*
=7	=7	=7
!!!OMD: Allegro.
16ff#\LL]	16ffff#LL] 16fff#\]	.
16ee#\	16eeee# 16eee#\	.
16ff#\	16ffff# 16fff#\	.
16ee#\	16eeee# 16eee#\	.
16ff#\	16ffff# 16fff#\	.
16ee#\	16eeee# 16eee#\	.
16ff#\	16ffff# 16fff#\	.
16ee#\JJ	16eeee#JJ 16eee#\	.
16ff#'>\	16ffff#'> 16fff#\	.
16b#X\LL	16bbb#XLL 16bb#X\	.
16cc#\	16cccc# 16ccc#\	.
16b#\	16bbb# 16bb#\	.
16cc#\	16cccc# 16ccc#\	.
16b#\	16bbb# 16bb#\	.
16cc#\	16cccc# 16ccc#\	.
16b#\JJ	16bbb#JJ 16bb#\	.
16cc#'>\	16cccc#'> 16ccc#\	.
16g##X/LL	16ggg##XLL 16gg##X\	.
16a#/	16aaa# 16aa#\	.
16g##/JJ	16ggg##JJ 16gg##\	.
16a#'</	16aaa#'> 16aa#\	.
16e#/LL	16eee#LL 16ee#\	.
16f#/	16fff# 16ff#\	.
16e#/JJ	16eee#JJ 16ee#\	.
*clefF4	*	*
*	*X8va	*
!	!	!LO:DY:b:rj
16f#LL 16F#\	16fff#LL 16ff#\	ff
16B#X 16BB#X\	16bb#X 16b#X\	.
16c# 16C#\	16ccc# 16cc#\	.
16G##XJJ 16GG##X\	16gg##XJJ 16g##X\	.
16A#LL 16AA#/	16aa#LL 16a#/	.
16E# 16EE#/	16ee# 16e#/	.
16F# 16FF#/	16ff# 16f#/	.
16BB#XJJ 16BBB#X/	16b#XJJ 16B#X/	.
16C#LL 16CC#/	16cc#LL 16c#/	.
16GG##X 16GGG##X/	16g##X 16G##X/	.
16AA# 16AAA#/	16a# 16A#/	.
16EE#JJ 16EEE#/	16e#JJ 16E#/	.
8FF# 8FFF#'<^</	8f# 8F#'<^</	.
8F# 8FF#'>^>/	8ff# 8f#'>^>\	.
8f# 8F#'>^>\	8fff# 8ff#'>^>\	.
*clefG2	*	*
*	*8va	*
!LO:TX:a:t=P:problem:fermata nad klcuzem basowym	!LO:TX:a:t=P:problem:fermata za nutą	!
8ff# 8f#'>^>;>\	8ffff# 8fff#'^;>\	.
*	*X8va	*
*clefF4	*	*
!!LO:LB:g=original
=8	=8	=8
!!!OMD: Maestoso.
!	!	!LO:DY:b:rj
2d# 2D#\	2ddd# 2dd#\	f
4.c##X 4.C##X\	4.ccc##X 4.cc##X\	.
(>8d# &(<8D#\	(>8ddd# &(<8dd#\	.
=9	=9	=9
1D#) 1DD#&)	1dd#) 1d#&)	.
=10	=10	=10
*	*^	*
2G# 2D# 2GG#/	2b/	2d# 2B\	.
4.G# 4.D# 4.GG#/	4.g#/	4.d# 4.B\	.
8G# 8D# 8GG#/	8b/	8d# 8B\	.
*	*v	*v	*
=11	=11	=11
8G#L [<8D# 8GG#/	(<8bL [>8d# 8B/	.
8F#J 8D#] 8FF#/	8a#J 8d#] 8A#/)	.
4r	4r	.
2r	2r	.
=12	=12	=12
*	*^	*
2B 2F# 2BB\	2dd#/	2g# 2d#\	.
4.c##X 4.A# 4.E# 4.AA#\	4.ee#/	4.a# 4.g# 4.e#\	.
8c## 8A# 8E# 8AA#\	8a#/	8g# 8e#\	.
=13	=13	=13	=13
*^	*	*	*
4F# 4AA# 4FF# 4DD#/	4ryy	4ff#/	4dd# 4a# 4d#\	.
4D#/	4DD# 4DDD#/	4ryy	4ryy	.
*clefG2	*	*	*	*
*	*	*8va	*	*
[>2dd#\	2ryy	[>2dddd# [<2ddd#\	2ryy	.
!!LO:LB:g=original
*v	*v	*	*	*
*	*v	*v	*
=14	=14	=14
!!!OMD: Allegro.
16dd#\LL]	16dddd#]LL 16ddd#\]	.
16cc##X\	16cccc##X 16ccc##X\	.
16dd#\	16dddd# 16ddd#\	.
16cc##\	16cccc## 16ccc##\	.
16dd#\	16dddd# 16ddd#\	.
16cc##\	16cccc## 16ccc##\	.
16dd#\	16dddd# 16ddd#\	.
16cc##\JJ	16cccc##JJ 16ccc##\	.
16dd#'>\	16dddd#'> 16ddd#\	.
16g##X/LL	16ggg##XLL 16gg##X\	.
16a#/	16aaa# 16aa#\	.
16g##/	16ggg## 16gg##\	.
16a#/	16aaa# 16aa#\	.
16g##/	16ggg## 16gg##\	.
16a#/	16aaa# 16aa#\	.
16g##/JJ	16ggg##JJ 16gg##\	.
16a#'</	16aaa#'> 16aa#\	.
16e#/LL	16eee#LL 16ee#\	.
16f#/	16fff# 16ff#\	.
16e#/JJ	16eee#JJ 16ee#\	.
16f#'</	16fff#'> 16ff#\	.
*	*X8va	*
*clefF4	*	*
16c##X\LL	16ccc##XLL 16cc##X\	ff
16d#\	16ddd# 16dd#\	.
16c##\JJ	16ccc##JJ 16cc##\	.
16d#LL 16D#\	16ddd#LL 16dd#\	.
16G##X 16GG##X\	16gg##X 16g##X\	.
16A# 16AA#\	16aa# 16a#\	.
16E#JJ 16EE#\	16ee#JJ 16e#\	.
16F#LL 16FF#/	16ff#LL 16f#/	.
16C##X 16CC##X/	16cc##X 16c##X/	.
16D# 16DD#/	16dd# 16d#/	.
16GG##XJJ 16GGG##X/	16g##XJJ 16G##X/	.
16AA#LL 16AAA#/	16a#LL 16A#/	.
16EE# 16EEE#/	16e# 16E#/	.
16FF##X 16FFF##X/	16f# 16F#/	.
16CC##XJJ 16CCC##X/	16c##XJJ 16C##X/	.
8DD# 8DDD#'<^</	8d# 8D#'<^</	.
8D# 8DD#'<^</	8dd# 8d#'<^</	.
8d# 8D#'>^>\	8ddd# 8dd#'>^>\	.
*clefG2	*	*
*	*8va	*
!LO:TX:a:t=P:problem:fermata za nutą	!LO:TX:a:t=P:problem:fermata za nutą	!
8dd# 8d#'<^<;>/	8dddd# 8ddd#'>^>;>\	.
*	*X8va	*
4r	8.e#^>/L	.
.	16d#/Jk	.
*clefF4	*	*
!!LO:PB:g=original
=15	=15	=15
*	*^	*
!!!OMD: Allegro vivace.
*	*Xtuplet	*Xtuplet	*
!	!LO:N:vis=2	!	!
!	!	!	!LO:DY:b:rj
!LO:TUP:b	!	!	!
(<12C#L 12CC#'</	12c#^</L	2c#\	p
*clefG2	*	*	*
12g#'</	12B 12E#/	.	.
12b'</J)	12BJ 12E#/	.	.
!LO:TX:b:Bi:t=staccato	!	!	!
!LO:TUP:a	!	!	!
(>12cc#'>\L	12BL 12E#/	.	.
12ee#'>\	12B 12E#/	.	.
12gg#'>\J)	12BJ 12E#/	.	.
4bb'>\	12d#/L	4d#\	.
.	12c# 12B/	.	.
.	12c#J 12B/	.	.
4ccc#'>\	12e#/L	4e#\	.
.	12c# 12B/	.	.
.	12c#J 12B/	.	.
*clefF4	*	*	*
=16	=16	=16	=16
!LO:TUP:a	!	!	!
!	!LO:N:vis=2	!	!
(>6F# 6FF#/	12f#/L	2.f#\	.
.	12c# 12A#/	.	.
*clefG2	*	*	*
12a#/)	12c#J 12A#/	.	.
!LO:TUP:a	!	!	!
(>12cc#'>\L	12c#L 12A#/	.	.
12ff#'>\	12c# 12A#/	.	.
12aa#'>\J)	12c#J 12A#/	.	.
4ccc#\	12c#L 12A#/	.	.
.	12c# 12A#/	.	.
.	12c#J 12A#/	.	.
4ddd#^<\	12b/L	4b^<\	.
.	12f# 12d#/	.	.
.	12f#J 12d#/	.	.
*clefF4	*	*	*
=17	=17	=17	=17
*Xtuplet	*	*	*
!	!LO:N:vis=2	!	!
4C# 4CC#/	12a#/L	2.a#\	.
.	12f# 12c#/	.	.
.	12f#J 12c#/	.	.
*clefG2	*	*	*
12cc#'>\L	12f#L 12c#/	.	.
12ff#'>\	12f# 12c#/	.	.
12aa#'>\J	12f#J 12c#/	.	.
8ccc#'>\	12f#L 12c#/	.	.
.	12f# 12c#/	.	.
8r	.	.	.
.	12f#J 12c#/	.	.
*clefF4	*	*	*
(>4C##X &(<4CC##X/	12g#/L	4g#\	.
.	12e# 12B/	.	.
.	12e#J 12B/	.	.
!!LO:LB:g=original
=18	=18	=18	=18
!	!LO:N:vis=2	!	!
6D#) 6DD#/&)	12f#/L	2f#\	.
.	12d# 12A#/	.	.
*clefG2	*	*	*
12a#/	12d#J 12A#/	.	.
12dd#'>\L	12d#L 12A#/	.	.
12ff#'>\	12d# 12A#/	.	.
12aa#'>\J	12d#J 12A#/	.	.
8ddd#^<\	12e#/L	4e#\	.
.	12G##X 12F#/	.	.
8r	.	.	.
.	12G##J 12F#/	.	.
*clefF4	*	*	*
4BB#X 4BBB#X/	12d#/L	4d#\	.
.	12G## 12F#/	.	.
.	12G##J 12F#/	.	.
=19	=19	=19	=19
!	!LO:N:vis=2	!	!
12C#L 12CC#'</	12c#/L	2c#\	.
*clefG2	*	*	*
12g#'</	12B 12E#/	.	.
12b'</J	12BJ 12E#/	.	.
12cc#'>\L	12BL 12E#/	.	.
12ee#'>\	12B 12E#/	.	.
12gg#'>\J	12BJ 12E#/	.	.
4bb\	12d#/L	4d#\	.
.	12c# 12B/	.	.
.	12c#J 12B/	.	.
4ccc#\	12e#/L	4e#\	.
.	12c# 12B/	.	.
.	12c#J 12B/	.	.
*clefF4	*	*	*
=20	=20	=20	=20
!	!LO:N:vis=2	!	!
6F# 6FF#/	12f#/L	2.f#\	.
.	12c# 12A#/	.	.
*clefG2	*	*	*
12a#/	12c#J 12A#/	.	.
12cc#'>\L	12c#L 12A#/	.	.
12ff#'>\	12c# 12A#/	.	.
12aa#'>\J	12c#J 12A#/	.	.
4ccc#'>\	12c#L 12A#/	.	.
.	12c# 12A#/	.	.
.	12c#J 12A#/	.	.
4ddd#^<\	12b/L	4b^<\	.
.	12f# 12d#/	.	.
.	12f#J 12d#/	.	.
*clefF4	*	*	*
!!LO:LB:g=original
=21	=21	=21	=21
!	!LO:N:vis=2	!	!
4C# 4CC#/	12a#/L	2.a#\	.
.	12f# 12c#/	.	.
.	12f#J 12c#/	.	.
*clefG2	*	*	*
12cc#'>\L	12f#L 12c#/	.	.
12ff#'>\	12f# 12c#/	.	.
12aa#'>\J	12f#J 12c#/	.	.
8ccc#'>\	12f#L 12c#/	.	.
!	!LO:TX:b:Bi:t=un poco rit.	!	!
.	12f# 12c#/	.	.
8r	.	.	.
.	12f#J 12c#/	.	.
*clefF4	*	*	*
4G#: 4CC#:/	12e#/L	4e#\	.
.	12c# 12B/	.	.
.	12c#J 12B/	.	.
*	*v	*v	*
=22	=22	=22
12F# 12FF#/	12f# 12c# 12A#/	.
12f#>\L	12cc#L 12a#/	.
12f#>\J	12cc#J 12a#/	.
12f#>\L	12cc#L 12a#/	<
12e#>\	12ddn 12b/	.
12e#>\J	12ddJ 12b/	.
12e#>\L	12ddL 12b/	.
12f#>\	12cc# 12a#/	.
12f#>\J	12cc#J 12a#/	.
12a#>L 12f#>\	12cc#L 12a#/	.
12an> 12d#X>\	12ff# 12b#X/	.
12a>J 12d#>\	12ff#J 12b#/	.
=23	=23	=23
12an>L 12d#>\	12ff#L 12b#X/	.
12g#> 12dn>\	12ee# 12bn/	.
12g#>J 12d>\	12ee#J 12b/	.
12g#>L 12d>\	12ee#L 12b/	.
12gn> 12c#>\	12aa#X 12een/	.
12g>J 12c#>\	12aa#J 12ee/	.
12g>L 12c#>\	12aa#L 12ee/	.
12f#> 12B#X>\	12aan 12dd#X/	.
12f#>J 12B#>\	12aaJ 12dd#/	.
12f#>L 12B#>\	12aaL 12dd#/	.
12e#X> 12Bn>\	12dddn 12gg#X/	.
12e#>J 12B>\	12dddJ 12gg#/	.
!!LO:LB:g=original
=24	=24	=24
!	!LO:TX:b:Bi:t=sempre piú cresc. e piú vivo:dur=10q:ext=cd:problem:dynamics with extention lines	!
12e#L 12B\	12dddnL 12gg#\	<
12en 12A#\	12ccc# 12ggn\	.
12eJ 12A#\	12ccc#J 12gg\	.
12eL 12A#\	12ccc#L 12gg\	.
12d# 12An\	12fff# 12bb#X\	.
12d#J 12A\	12fff#J 12bb#\	.
12d#L 12A\	12fff#L 12bb#\	.
12dn 12G#\	12eee#X 12bbn\	.
12dJ 12G#\	12eee#J 12bb\	.
12dL 12G#\	12eee#L 12bb\	.
*	*8va	*
12d 12Gn\	12bbb 12eee#\	.
12dJ 12G\	12bbbJ 12eee#\	.
=25	=25	=25
12dnL 12Gn\	12bbbL 12eee#\	.
12c# 12G\	12aaa# 12eee#\	.
12dJ 12G\	12bbbJ 12eee#\	.
12c#L 12G\	12cccc#L 12eee#\	.
12d 12G\	12bbb 12eee#\	.
12c#J 12G\	12cccc#J 12eee#\	.
12BL 12G\	12ddddnL 12eee#\	.
12c# 12G\	12cccc# 12eee#\	.
12dJ 12G\	12bbbJ 12eee#\	.
12dL 12G\	12bbbL 12eee#\	.
12en 12G\	12cccc# 12eee#\	.
12e#XJ 12G\	12bbbJ 12eee#\	.
=26	=26	=26
12f# 12F#\	12cccc# 12aaa#\	.
*clefG2	*	*
*	*X8va	*
12ff#\L	12eee#L 12ccc#\	.
12ff#\J	12eee#J 12ccc#\	.
12ff#\L	12eee#L 12ccc#\	[
12ee#\	12dddn 12bb\	.
12ee#\J	12dddJ 12bb\	.
12ee#\L	12dddL 12bb\	.
12ff#\	12ccc# 12aa#\	.
12ff#\J	12ccc#J 12aa#\	.
12ff#\L	12ccc#L 12aa#\	.
12aan 12dd#X\	12fff# 12bb#X\	.
12aaJ 12dd#\	12fff#J 12bb#\	.
!!LO:LB:g=original
=27	=27	=27
12aanL 12dd#\	12fff#L 12bb#X\	.
12gg# 12ddn\	12eee# 12bbn\	.
12gg#J 12dd\	12eee#J 12bb\	.
12gg#L 12dd\	12eee#L 12bb\	.
12ggn 12cc#\	12aaa#X 12eeen\	.
12ggJ 12cc#\	12aaa#J 12eee\	.
12ggL 12cc#\	12aaa#L 12eee\	.
12ff# 12ccn\	12aaan 12ddd#X\	.
12ff#J 12cc\	12aaaJ 12ddd#\	.
12ff#L 12cc\	12aaaL 12ddd#\	.
12aan 12dd#X\	12fff# 12cccn\	.
12aaJ 12dd#\	12fff#J 12ccc\	.
=28	=28	=28
12aanL 12dd#\	12fff#L 12cccn\	.
12ff# 12ccn\	12ddd# 12aan\	.
12ff#J 12cc\	12ddd#J 12aa\	.
12ff#L 12cc\	12ddd#L 12aa\	.
12dd# 12an\	12cccn 12ff#\	.
12dd#J 12a\	12cccJ 12ff#\	.
12dd#L 12a\	12cccL 12ff#\	.
12ddn 12g#\	12bb 12ee#\	.
12ddJ 12g#\	12bbJ 12ee#\	.
12ddL 12g#\	12bbL 12ee#\	.
12cc#X 12gn\	12aa#X 12een\	.
12cc#J 12g\	12aa#J 12ee\	.
=29	=29	=29
12cc#L 12gn/	12aa#L 12een\	>
12ccn 12f#/	12aan 12dd#\	.
12ccJ 12f#/	12aaJ 12dd#\	.
12ccL 12f#/	12aaL 12dd#\	.
12b 12e#X/	12gg# 12ddn\	.
12bJ 12e#/	12gg#J 12dd\	.
12bL 12e#/	12gg#L 12dd\	.
12a#X 12en/	12ggn 12cc#X\	]
12a#J 12e/	12ggJ 12cc#\	.
12a#L 12e/	12ggL 12cc#\	.
12an 12d#X/	12ff# 12ccn\	.
12aJ 12d#/	12ff#J 12cc\	.
!!LO:PB:g=original
=30	=30	=30
(>12anL 12d#/	12ff#L 12ccn\	.
!LO:S:s=1:note:problem:note-level slur	!	!
12g#) 12d#/	12ff# 12cc\	.
12g#J 12d#/	12ff#J 12cc\	.
12g#L 12d#/	12ff#L 12cc\	.
12g# 12d#/	12ff# 12cc\	.
12g#J 12d#/	12ff#J 12cc\	.
(<12g#L 12d#/	12ff#L 12cc\	.
12g# 12dn/)	12ff# 12cc\	.
12g#J 12d/	12ff#J 12cc\	.
12g#L 12d/	12ff#L 12cc\	.
12g# 12d/	12ff# 12cc\	.
12g#J 12d/	12ff#J 12cc\	.
=31	=31	=31
!	!LO:S:s=2:note:problem:note-level slur	!
12g#L 12dn/	12ff#L (<12ccn\	>
!	!LO:S:s=2:note:problem:note-level slur	!
12g# 12d/	12ff# 12b\)	.
12g#J 12d/	12ff#J 12b\	.
12g#L 12d/	12ff#L 12b\	.
12g# 12d/	12ff# 12b\	.
12g#J 12d/	12ff#J 12b\	.
(<12g#L 12d/	(>12ff#L 12b\	.
12g# 12c#/)	12ee# 12b\)	]
12g#J 12c#/	12ee#J 12b\	.
12g#L 12c#/	12ee#L 12b\	.
12g# 12c#/	12ee# 12b\	.
12g#J 12c#/	12ee#J 12b\	.
*clefF4	*	*
=32	=32	=32
*	*^	*
4r	1ee# 1e#	12rb	f
.	.	12cc#L 12b\	.
.	.	12cc#J 12b\	.
(<8.C#L 8.CC#^>/	.	12cc#L 12b\	.
.	.	12cc# 12b\	.
.	.	12cc#J 12b\	.
16D#K 16DD#/	.	.	.
8.E# 8.EE#^>/	.	12cc#L 12b\	.
.	.	12cc# 12b\	.
.	.	12cc#J 12b\	.
16F#K 16FF#/	.	.	.
8.G# 8.GG#^>/	.	12cc#L 12b\	.
.	.	12cc# 12b\	.
.	.	12cc#J 12b\	.
16A#Jk 16AA#/	.	.	.
!!LO:LB:g=original
=33	=33	=33	=33
4B 4BB^>\)	1ccc# 1cc#^>	12ree	.
.	.	12gg#L 12ee#\	.
.	.	12gg#J 12ee#\	.
(>8.c#L 8.C#^<\	.	12gg#L 12ee#\	.
.	.	12gg# 12ee#\	.
.	.	12gg#J 12ee#\	.
16d#K 16D#\	.	.	.
8.e# 8.E#^<\	.	12gg#L 12ee#\	.
.	.	12gg# 12ee#\	.
.	.	12gg#J 12ee#\	.
16f#K 16F#\	.	.	.
8.g# 8.G#^<\	.	12gg#L 12ee#\	.
.	.	12gg# 12ee#\	.
.	.	12gg#J 12ee#\	.
16a#Jk 16A#\)	.	.	.
=34	=34	=34	=34
!LO:TX:b:Bi:t=con impeto e	!	!	!
12b>L 12B\	[>1eee# [<1ee#^>	12rgg	.
12cc#> 12c#\	.	12ccc#L 12bb/	.
12b>J 12B\	.	12ccc#J 12bb/	.
12a#>L 12A#\	.	12ccc#L 12bb/	.
12g#> 12G#\	.	12ccc# 12bb/	.
!	!	!	!LO:DY:b=2
12f#>J 12F#\	.	12ccc#J 12bb/	ff
12e#>L 12E#\	.	12ccc#L 12bb/	.
12d#> 12D#\	.	12ccc# 12bb/	.
12c#J 12C#\	.	12ccc#J 12bb/	.
12BL 12BB\	.	12ccc#L 12bb/	.
12A# 12AA#\	.	12ccc# 12bb/	.
12G#J 12GG#\	.	12ccc#J 12bb/	.
=35	=35	=35	=35
!	!LO:TX:a:t=P:problem:notes position	!	!
12F#L 12FF#/	1eee#] 1ee#]	12ccc#L 12bb\	.
12E# 12EE#/	.	12ccc# 12bb\	.
12D#J 12DD#/	.	12ccc#J 12bb\	.
12C#L 12CC#/	.	12ccc#L 12bb\	.
12BB 12BBB/	.	12ccc# 12bb\	.
12AA#J 12AAA#/	.	12ccc#J 12bb\	.
!LO:TX:b:Bi:t=un poco rit.ma:dur=2q:ext=s:problem:text with extention lines	!	!	!
12GG#L 12GGG#/	.	12ccc#L 12bb\	.
12FF# 12FFF#/	.	12ccc# 12bb\	.
12EE#J 12EEE#/	.	12ccc#J 12bb\	.
12EEnL 12EEEn/	.	12ccc#L 12bb\	.
12DD# 12DDD#/	.	12ccc# 12bb\	.
12DDnJ 12DDDn/	.	12ccc#J 12bb\	.
!!LO:LB:g=original
*	*v	*v	*
=36	=36	=36
*	*	*^
*	*tuplet	*	*
!LO:TX:b:Bi:t=sempre:rj	!	!	!
!	!LO:TX:a:t=P:problem:fermata przed nutą	!	!
!	!	!LO:DY:b:rj	!LO:DY:b=2
8CC# 8CCC#;>/	8ggg#'> 8ccc# 8gg#;>\	ff	ff
*	*8va	*	*
!	!LO:TX:b:Bi:t=con forza e prestissimo	!	!
!	!LO:TUP:b:problem:klamra łukowa	!	!
6ryy	24ggg#/LL	.	.
.	24cccc#/	.	.
.	24ggg#/	.	.
.	24ccc#/JJ	.	.
*	*X8va	*	*
!	!LO:N:vis=12	!	!
24ccc#>\LL	24rfff	.	.
24gg#>\J	24ryy	.	.
!	!LO:TUP:a:problem:klamra łukowa	!	!
12cc#>\J	24gg#/LL	.	.
.	24ccc#/	.	.
12rb>	24gg#/	.	.
.	24cc#/JJ	.	.
!	!LO:N:vis=12	!	!
24cc#>\LL	24rgg	.	.
24g#>\J	24ryy	.	.
*	*Xtuplet	*	*
12c#>\J	24g#/LL	.	.
.	24cc#/	.	.
12rc>	24g#/	.	.
.	24c#/JJ	.	.
24c#>\LL	12r	.	.
24G#\J	.	.	.
12C#\J	24G#</LL	.	.
.	24c#</	.	.
12r	24G#</	.	.
.	24C#</JJ	.	.
24C#\LL	12rc<	.	.
24GG#\J	.	.	.
12CC#\J	24GG#</LL	.	.
.	24C#</	.	.
12rCC	24GG#</	.	.
.	24CC#</JJ	.	.
24CC#\LL	12rE<	.	.
24GGG#\JJ	.	.	.
*	*clefF4	*	*
24CCC#/LL	24CC#/LL	.	.
24GGG#/	24GG#/	.	.
24CC#/	24C#/	.	.
24CC#/	24C#/	.	.
24GG#/	24G#/	.	.
24C#/JJ	24c#/JJ	.	.
24GG#/LL	24G#\LL	.	.
24CC#/	24C#\	.	.
24GG#/	24G#\	.	.
24C#/	24c#\	.	.
24C#/	24c#\	.	.
24G#/JJ	24g#\JJ	.	.
*	*clefG2	*	*
24c#\LL	24cc#/LL	.	.
24G#\	24g#/	.	.
24C#\	24c#/	.	.
24G#\	24g#/	.	.
24c#\	24cc#/	.	.
24c#\JJ	24cc#/JJ	.	.
*clefG2	*	*	*
24g#/LL	24gg#\LL	.	.
24cc#/	24ccc#\	.	.
24g#/	24gg#\	.	.
24c#/	24cc#\	.	.
24g#/	24gg#\	.	.
24cc#/JJ	24ccc#\JJ	.	.
*	*8va	*	*
24cc#\LL	24ccc#\LL	>	.
24gg#\	24ggg#\	.	.
24ccc#\	24cccc#\	.	.
24gg#\	24ggg#\	.	.
24cc#\	24ccc#\	.	.
24gg#\JJ	24ggg#\JJ	.	.
24eee#\LL	24cccc#\LL	.	p
24gg#\	24ggg#\	.	.
24cc#\	24ccc#\	.	.
24gg#\	24ggg#\	.	.
24eee#\	24cccc#\	.	.
24gg#\JJ	24ggg#\JJ	.	.
!!LO:LB:g=original
24eee#\LL	24cccc#\LL	.	.
24gg#\	24ggg#\	.	.
24cc#\	24ccc#\	.	.
24gg#\	24ggg#\	.	.
24eee#\	24cccc#\	.	.
24gg#\JJ	24ggg#\JJ	.	.
24eee#\LL	24cccc#\LL	.	pp
24gg#\	24ggg#\	.	.
24cc#\	24ccc#\	.	.
24gg#\	24ggg#\	.	.
24eee#\	24cccc#\	.	.
24gg#\JJ	24ggg#\JJ	.	.
*	*	*v	*v
=37	=37	=37
8cc#\	8cccc#\	.
*	*X8va	*
8r	8r	.
4r	4r	.
*clefF4	*	*
!	!	!LO:DY:b=2:rj
2CCC#;>/	2r;>	p
=38||	=38||	=38||
*>B	*>B	*
*M3/4	*M3/4	*
!!!OMD: Andante con moto.
(>8A#L 8C# 8FF#\	2.r	.
8c#\	.	.
8f# 8A# 8F#\	.	.
8c#\	.	.
8f#J 8A# 8F#\)	.	.
8r	.	.
=39	=39	=39
(>8A#L 8C# 8FF#\	2.r	.
8c#\	.	.
8f# 8A# 8F#\	.	.
8c#\	.	.
8f#J 8A# 8F#\)	.	.
8r	.	.
=40	=40	=40
!	!LO:TX:b:Bi:t=e simplice	!
!	!	!LO:DY:b:rj
8A#L 8C# 8FF#\	(>4ff#\	p
8c#\	.	.
8f# 8A#\	4ee#\	.
8c#\	.	.
8f# 8A#\	4ff#\	.
8c#\J	.	.
=41	=41	=41
8A#L 8C# 8FF#\	2cc#\	.
8c#\	.	.
8f# 8A#\	.	.
8c#\	.	.
8f# 8A#\	4cc#\	.
8c#\J	.	.
!!LO:LB:g=original
=42	=42	=42
8F#L 8BB\	4dd#\	.
8B\	.	.
8d# 8F#\	4b\	.
8B\	.	.
8f# 8F#\	4dd#\	.
8B\J	.	.
=43	=43	=43
8A#L 8C# 8FF#\	2cc#\	.
8c#\	.	.
8f# 8A#\	.	.
8c#\	.	.
8f# 8A#\	4cc#\)	.
8c#\J	.	.
=44	=44	=44
8A#L 8C# 8FF#\	(>4ff#\	.
8c#\	.	.
8f# 8A#\	4ee#\	.
8c#\	.	.
8f# 8A#\	4ff#\	.
8c#\J	.	.
=45	=45	=45
8BL 8C#\	2gg#\	p
8c#\	.	.
8e# 8B\	.	.
8c#\	.	.
8g# 8B\	4cc#\	.
8c#\J	.	.
=46	=46	=46
8BL 8C#\	2bb\	pp
8c#\	.	.
8e# 8B\	.	.
8c#\	.	.
8g#J 8B\	4aa#\	.
8r	.	.
=47	=47	=47
8BL 8C#\	4gg#\)	>
8c#\	.	.
8e# 8B\	4r	.
8c#\	.	.
8g#J 8B\	4r	.
8r	.	.
!!LO:PB:g=original
=48	=48	=48
8BL 8C#\	(>4bb\	.
8c#\	.	.
8e# 8B\	4aa#\	.
8c#\	.	.
8g# 8B\	4gg#\	.
8c#J\	.	.
=49	=49	=49
8BL 8C# 8FF#\	2aa#\	.
8c#\	.	.
8f# 8A#\	.	.
8c#\	.	.
8f# 8A#\	4ff#\	.
8c#\J	.	.
=50	=50	=50
8F#L 8BB\	4ee#\	.
8B\	.	.
8d# 8F#\	4.ff#^>\	.
8B\	.	.
8f# 8F#\	.	.
8B\J	8dd#\	.
=51	=51	=51
8A#L 8FF#\	2dd#\	.
8c#\	.	.
8f# 8A#\	.	.
8c#\	.	.
8f# 8A#\	4cc#\)	.
8c#\J	.	.
=52	=52	=52
8BL 8C#\	(>4cc#\	.
8c#\	.	.
8f# 8B\	4dd#\	.
8c#\	.	.
8f# 8B\	4ee#\	<
8c#\J	.	.
=53	=53	=53
8A#L 8C# 8FF#\	2ff#\	.
8c#\	.	.
8f# 8A#\	.	.
8c#\	.	.
(>8d# 8BB\	4bb\)	[[
8f#\J)	.	.
!!LO:LB:g=original
=54	=54	=54
8c#L 8C#\	(>2aa#\	>
8c#\	.	.
8f# 8A#\	.	.
8c#\	.	.
8e# 8B\	4gg#\	.
8c#\J	.	.
=55	=55	=55
8A#L 8C# 8FF#\	4.ff#\	.
8c#\	.	.
8f# 8A#\	.	]
8c#\	8cc#\	.
8f# 8A#\	16dd#\LL	.
.	16cc#\	.
8c#\J	16b#X\	.
.	16cc#\JJ)	.
=56	=56	=56
*^	*	*
*	*	*tuplet	*
(>8qCC#/	.	(>8qcc#/	.
4E#^>/)	8E#\L	(>4bb\)	.
.	8c#\	.	.
4F#^>/	8F#\	4aa#\	.
.	8c#\	.	.
!	!	!LO:TUP:a	!
4G#^>/	8G#\	&(>20gg#\LL	.
.	.	20aa#\	.
.	.	20gg#\	.
.	8c#\J	.	.
.	.	20ff#\	.
.	.	20gg#\JJ&)	.
*	*	*Xtuplet	*
*v	*v	*	*
=57	=57	=57
8F#L 8FF#\	2aa#\	.
8c#\	.	.
8f# 8A#\	.	.
8c#\	.	.
8f# 8A#\	4ff#\)	.
8c#\J	.	.
=58	=58	=58
*	*	*^
*	*tuplet	*	*
!	!LO:TUP:a	!	!
8F#L 8BB\	(>20ee#\LL	.	f
.	20ff#\	.	.
.	20ee#\	.	.
8B\	.	.	.
.	20dd##X\	.	.
.	20ee#\JJ)	.	.
!	!	!LO:DY:a	!
!	!LO:TUP:a	!	!
8d# 8F#\	(>24gg#\LL	pp	p
.	24ff#\	.	.
.	24ee#\	.	.
8B\	24ggg#\	.	.
.	24fff#\	.	.
.	24eee#\JJ)	.	.
!	!LO:TUP:a	!	!
8f# 8F#\	(>24gg#\LL	.	.
.	24ff#\	.	.
.	24ee#\	.	.
8B\J	24gg#\	.	.
.	24.ff#\	.	.
!	!LO:N:acc=n#	!	!
.	48dd#\JJk)	.	.
*	*Xtuplet	*	*
!!LO:LB:g=original
*	*	*v	*v
=59	=59	=59
8A#L 8FF#\	(>2dd#\	.
8c#\	.	.
8f# 8A#\	.	.
8c#\	.	.
8f# 8A#\	4cc#\)	.
8c#\J	.	.
=60	=60	=60
.	16qqe#/LL	.
.	[<16qqe#/	.
.	N[<16qqb/JJ	.
8C# 8CC#/	4cc# 4bN] 4e#/]	.
8c#\L	.	.
8e# 8B\	4dd#\	<
8c#\	.	.
8g# 8B\	4ee#\	.
8c#\J	.	.
=61	=61	=61
*	*^	*
.	.	16qqf#/LL	.
.	.	[<16qqf#/	.
.	.	N[<16qqa#/JJ	.
8A#L 8C# 8FF#\	2ff#/	2a#N] 2f#\]	[
8c#\	.	.	.
8f# 8A#\	.	.	.
8c#\J	.	.	.
.	.	16qqg#/LL	.
.	.	[<16qqg#/	.
.	.	N[<16qqdd#/JJ	.
(>8G#L 8BB\	4bb/	4dd#N] 4g#\]	.
8f#\J)	.	.	.
=62	=62	=62	=62
.	.	16qqf#/LL	.
.	.	[<16qqf#/	.
.	.	N[<16qqcc#/JJ	.
8C# 8CC#/	2aa#/	2cc#N] 2f#\]	.
8c#\L	.	.	.
8f# 8A#\	.	.	.
8c#\J	.	.	.
.	.	16qqe#/LL	>
.	.	[<16qqe#/	.
.	.	N[<16qqb/)	.
.	.	NN[>16qqcc#/JJ	.
8C#L 8CC#\	4gg#/	4cc#NN] 4bN] 4e#\]	.
8c#\J	.	.	.]]
*	*v	*v	*
=63	=63	=63
.	16qqc#/LL	.
.	16qqc#/	.
.	16qqf#/	.
.	16qqcc#/JJ	.
8A#L 8C# 8FF#\	2ff#\	.
8c#\	.	.
8f# 8A# 8F#\	.	.
8c#\	.	.
8f# 8A# 8F#\	4r	.
8c#\J	.	.
!!LO:LB:g=original
=64||	=64||	=64||
*>C	*>C	*
*	*^	*
!	!LO:TX:a:Bi:t=Doppio movimento	!	!
!	!	!	!LO:DY:b:rj
8a#: 8c#: 8F#'>:\	(>4fff#/	16fff#\LL	p
.	.	16aa#\	.
8r	.	16ccc#\	.
.	.	16ff#\JJ	.
!LO:TX:a:Bi:t=m.s.	!	!	!
16cc#>\LL	8eee#/)	4ryy	.
16a#>\	.	.	.
16f#>\	8rgg	.	.
16c#>\JJ	.	.	.
!	!LO:TX:b:Bi:t=m.d.	!	!
4r	4fff#/	16fff#\LL	.
.	.	16aa#\	.
.	.	16ccc#\	.
.	.	16ff#\JJ	.
=65	=65	=65	=65
!	!	!LO:N:vis=2	!
8a#: 8c#: 8F#'>:\	N(>2ccc#/	16ccc#\LL	.
.	.	16ff#\	.
8r	.	16aa#\	.
.	.	16cc#\JJ	.
16cc#>\LL	.	4ryy	.
16a#>\	.	.	.
16f#>\	.	.	.
16c#>\JJ	.	.	.
4r	4ccc#/	16ccc#\LL	.
.	.	16ff#\	.
.	.	16aa#\	.
.	.	16cc#\JJN)	.
=66	=66	=66	=66
8d#: 8F#: 8BB'>:\	(>4ddd#/	16ddd#\LL	.
.	.	16ff#\	.
8r	.	16bb\	.
.	.	16dd#\JJ	.
16dd#>\LL	8bb/)	4ryy	.
16f#>\	.	.	.
16d#>\	8r	.	.
16B>\JJ	.	.	.
4r	4ddd#/	16ddd#\LL	.
.	.	16ff#\	.
.	.	16bb\	.
.	.	16dd#\JJ	.
!!LO:LB:g=original
=67	=67	=67	=67
!	!	!LO:N:vis=2	!
8a#: 8c#: 8F#'>:\	N(>2ccc#/	16ccc#\LL	.
.	.	16ff#\	.
8r	.	16aa#\	.
.	.	16cc#\JJ	.
16cc#>\LL	.	4ryy	.
16a#>\	.	.	.
16f#>\	.	.	.
16c#>\JJ	.	.	.
4r	4ccc#/	16ccc#\LL	.
.	.	16ff#\	.
.	.	16aa#\	.
.	.	16cc#\JJN)	.
=68	=68	=68	=68
8a#: 8c#: 8F#'>:\	(>4fff#/	16fff#\LL	.
.	.	16aa#\	.
8r	.	16ccc#\	.
.	.	16ff#\JJ	.
16cc#>\LL	8eee#/)	4ryy	.
16a#>\	.	.	.
16f#>\	8rgg	.	.
16c#>\JJ	.	.	.
4r	4fff#/	16fff#\LL	.
.	.	16aa#\	.
.	.	16ccc#\	.
.	.	16ff#\JJ	.
=69	=69	=69	=69
!	!	!LO:N:vis=2	!
8e#: 8B: 8G#: 8C#'>:\	N(>2ggg#/	16ggg#\LL	.
.	.	16bb\	.
8r	.	16ccc#\	.
.	.	16gg#\JJ	.
16ee#>\LL	.	4ryy	.
16b>\	.	.	.
16g#>\	.	.	.
16c#>\JJ	.	.	.
4r	4ccc#/	16ccc#\LL	.
.	.	16ee#\	.
.	.	16gg#\	.
.	.	16cc#\JJN)	.
!!LO:PB:g=original
=70	=70	=70	=70
!	!	!LO:TX:a:t=P:problem:przez 12 taktów zapiski ołówkiem nad taktami [litery oznaczające wysokości dźwięków]	!
!	!	!LO:N:vis=2	!
8e#: 8B: 8G#: 8C#:\	N(>2bbb/	16bbb\LL	.
.	.	16ccc#\	.
8r	.	16ggg#\	.
.	.	16bb\JJ	.
16ee#>\LL	.	4ryy	.
16b>\	.	.	.
16g#>\	.	.	.
16c#>\JJ	.	.	.
4r	4aaa#/	16aaa#\LL	.
.	.	16ccc#\	.
.	.	16eee#\	.
.	.	16aa#\JJN)	.
=71	=71	=71	=71
!	!	!LO:N:vis=2	!
8e#: 8B: 8G#: 8C#:\	(>2ggg#/	16ggg#\LL	.
.	.	16bb\	.
8r	.	16ccc#\	.
.	.	16gg#\JJ	.
16ee#>\LL	.	4ryy	.
16b>\	.	.	.
16g#>\	.	.	.
16c#>\JJ	.	.	.
4r	8cc#/)	4ryy	.
.	8r	.	.
=72	=72	=72	=72
8e#: 8B: 8G#: 8C#:\	(>4bbb/	16bbb\LL	.
.	.	16ccc#\	.
8r	.	16ggg#\	.
.	.	16bb\JJ	.
16ee#>\LL	8aaa#/)	4ryy	.
16b>\	.	.	.
16g#>\	8rgg	.	.
16c#>\JJ	.	.	.
4r	4ggg#/	16ggg#\LL	.
.	.	16bb\	.
.	.	16ccc#\	.
.	.	16gg#\JJ	.
!!LO:LB:g=original
=73	=73	=73	=73
!	!	!LO:N:vis=2	!
8a#: 8c#: 8F#:\	N(>2aaa#/	16aaa#\LL	.
.	.	16ccc#\	.
8r	.	16fff#\	.
.	.	16aa#\JJ	.
16cc#>\LL	.	4ryy	.
16a#>\	.	.	.
16f#>\	.	.	.
16c#>\JJ	.	.	.
4r	4fff#/	16fff#\LL	.
.	.	16aa#\	.
.	.	16ccc#\	.
.	.	16ff#\JJN)	.
=74	=74	=74	=74
8d#: 8F#: 8BB:\	(>4eee#/	16eee#\LL	.
.	.	16bb\	.
8r	.	16ddd#\	.
.	.	16ff#\JJ	.
16dd#>\LL	8fff#/)	4ryy	.
16f#>\	.	.	.
16d#>\	8r	.	.
16B>\JJ	.	.	.
4r	4ddd#/	16ddd#\LL	.
.	.	16ff#\	.
.	.	16bb\	.
.	.	16dd#\JJ	.
=75	=75	=75	=75
!	!	!LO:N:vis=2	!
8a#: 8c#: 8F#:\	N(>2ddd#/	16ddd#\LL	.
.	.	16ff#\	.
8r	.	16aa#\	.
.	.	16dd#\JJ	.
16cc#>\LL	.	4ryy	.
16a#>\	.	.	.
16f#>\	.	.	.
16c#>\JJ	.	.	.
4r	4ccc#/	16ccc#\LL	.
.	.	16ff#\	.
.	.	16aa#\	.
.	.	16cc#\JJN)	.
!!LO:LB:g=original
=76	=76	=76	=76
8e#: 8B: 8G#: 8C#:\	(>4ccc#/	16ccc#\LL	.
.	.	16ee#\	.
8r	.	16gg#\	.
.	.	16cc#\JJ	.
16ee#>\LL	8ddd#/)	4ryy	.
16b>\	.	.	.
16g#>\	8rgg	.	.
16c#>\JJ	.	.	.
4r	4eee#/	16eee#\LL	.
.	.	16bb\	.
.	.	16ccc#\	.
.	.	16ee#\JJ	.
=77	=77	=77	=77
!	!	!LO:N:vis=2	!
8a#: 8c#: 8F#:\	N(>2fff#/	16fff#\LL	.
.	.	16aa#\	.
8r	.	16ccc#\	.
.	.	16ff#\JJ	.
16cc#>\LL	.	4ryy	.
16a#>\	.	.	.
16f#>\	.	.	.
16c#>\JJ	.	.	.
*clefG2	*	*	*
8dd#: 8g#: 8B:/	4bbb/	16bbb\LL	.
.	.	16ddd#\	.
8r	.	16ggg#\	.
.	.	16bb\JJN)	.
*clefF4	*	*	*
=78	=78	=78	=78
!	!	!LO:N:vis=2	!
8f#: 8A#: 8C#:\	N(>2aaa#/	16aaa#\LL	.
.	.	16ccc#\	.
8r	.	16fff#\	.
.	.	16aa#\JJ	.
16cc#>\LL	.	4ryy	.
16a#>\	.	.	.
16f#>\	.	.	.
16c#>\JJ	.	.	.
*clefG2	*	*	*
8ee#: 8b: 8g#:\	4ggg#/	16ggg#\LL	.
.	.	16bb\	.
8r	.	16ccc#\	.
.	.	16gg#\JJN)	.
*clefF4	*	*	*
!!LO:LB:g=original
=79	=79	=79	=79
!	!	!LO:N:vis=2	!
8a#: 8c#: 8F#:\	N(>2fff#/	16fff#\LL	.
.	.	16aa#\	.
8r	.	16ccc#\	.
.	.	16ff#\JJ	.
16cc#>\LL	.	4ryy	.
16a#>\	.	.	.
16f#>\	.	.	.
16c#>\JJ	.	.	.
4r	4ccc#/	16ccc#\LL	.
.	.	16ff#\	.
.	.	16aa#\	.
.	.	16cc#\JJN)	.
=80	=80	=80	=80
8e#: 8B: 8G#: 8C#:\	(>4bbb/	16bbb\LL	.
.	.	16ccc#\	.
8r	.	16ggg#\	.
.	.	16bb\JJ	.
16ee#>\LL	8aaa#/)	4ryy	.
16b>\	.	.	.
16g#>\	8rgg	.	.
16c#>\JJ	.	.	.
4r	4ggg#/	16ggg#\LL	.
.	.	16bb\	.
.	.	16ccc#\	.
.	.	16gg#\JJ	.
=81	=81	=81	=81
!	!	!LO:N:vis=2	!
8a#: 8c#: 8F#:\	N(>2aaa#/	16aaa#\LL	.
.	.	16ccc#\	.
8r	.	16fff#\	.
.	.	16aa#\JJ	.
16cc#>\LL	.	4ryy	.
16a#>\	.	.	.
16f#>\	.	.	.
16c#>\JJ	.	.	.
4r	4fff#/	16fff#\LL	.
.	.	16aa#\	.
.	.	16ccc#\	.
.	.	16ff#\JJN)	.
!!LO:LB:g=original
=82	=82	=82	=82
8d#: 8F#: 8BB:\	(>4eee#/	16eee#\LL	.
.	.	16bb\	.
8r	.	16ddd#\	.
.	.	16ff#\JJ	.
.	8qggg#/	.	.
16dd#>\LL	8fff#/)	4ryy	.
16f#>\	.	.	.
16d#>\	8rgg	.	.
16B>\JJ	.	.	.
4r	4ddd#/	16ddd#\LL	.
.	.	16ff#\	.
.	.	16bb\	.
.	.	16dd#\JJ	.
=83	=83	=83	=83
!	!	!LO:N:vis=2	!
8a#: 8c#: 8F#:\	N(>2ddd#/	16ddd#\LL	.
.	.	16ff#\	.
8r	.	16aa#\	.
.	.	16dd#\JJ	.
16cc#>\LL	.	4ryy	.
16a#>\	.	.	.
16f#>\	.	.	.
16c#>\JJ	.	.	.
4r	4ccc#/	16ccc#\LL	.
.	.	16ff#\	.
.	.	16aa#\	.
.	.	16cc#\JJN)	.
=84	=84	=84	=84
8e#: 8B: 8G#: 8C#:\	(>4ccc#/	16ccc#\LL	.
.	.	16ee#\	.
8r	.	16gg#\	.
.	.	16cc#\JJ	.
16ee#>\LL	8ddd#/)	4ryy	.
16b>\	.	.	.
16g#>\	8rgg	.	.
16c#>\JJ	.	.	.
4r	4eee#/	16eee#\LL	.
.	.	16bb\	.
.	.	16ccc#\	.
.	.	16ee#\JJ	.
!!LO:PB:g=original
=85	=85	=85	=85
!	!	!LO:N:vis=2	!
8a#: 8c#: 8F#:\	N(>2fff#/	16fff#\LL	.
.	.	16aa#\	.
8r	.	16ccc#\	.
.	.	16ff#\JJ	.
16cc#>\LL	.	4ryy	.
16a#>\	.	.	.
16f#>\	.	.	.
16c#>\JJ	.	.	.
*clefG2	*	*	*
8dd#: 8g#: 8B:/	4bbb/	16bbb\LL	.
.	.	16ddd#\	.
8r	.	16ggg#\	.
.	.	16bb\JJN)	.
*clefF4	*	*	*
=86	=86	=86	=86
!	!	!LO:N:vis=2	!
8f#: 8A#: 8C#:\	N(>2aaa#/	16aaa#\LL	.
.	.	16ccc#\	.
8r	.	16fff#\	.
.	.	16aa#\JJ	.
16cc#>\LL	.	4ryy	.
16a#>\	.	.	.
16f#>\	.	.	.
16c#>\JJ	.	.	.
*clefG2	*	*	*
8ee#: 8b: 8g#:\	4ggg#/	16ggg#\LL	.
.	.	16bb\	.
8r	.	16ccc#\	.
.	.	16gg#\JJN)	.
*clefF4	*	*	*
=87	=87	=87	=87
!	!	!LO:N:vis=2	!
8a#: 8c#: 8F#:\	(>2fff#/	16fff#\LL	.
.	.	16aa#\	.
8r	.	16ccc#\	.
.	.	16ff#\JJ	.
16cc#>\LL	.	4ryy	.
16a#>\	.	.	.
16f#>\	.	.	.
16c#>\JJ	.	.	.
*	*8va	*	*
4r	8ffff#/)	4ryy	.
.	8rffff	.	.
*	*X8va	*	*
*	*v	*v	*
=88	=88	=88
!LO:TX:a:t=P:problem:zmiana znaków przykluczowych przed łamaniem systemu	!	!
!	!LO:TX:a:t=P:problem:zmiana znaków przykluczowych przed łamaniem systemu	!
2.FFF#;>/	2.r;>	.
!!LO:LB:g=original
=89||	=89||	=89||
*^	*	*
!!!OMD: Moderato.
*>D	*>D	*>D	*
*k[cancel]	*k[cancel]	*k[cancel]	*
*k[b-e-a-d-g-]	*k[b-e-a-d-g-]	*k[b-e-a-d-g-]	*
*tremolo	*	*	*
!LO:TX:b:Bi:t=trem.	!	!	!
!	!	!	!LO:DY:b:rj
16DD-/LL	2.DD-\	2.r	pp
16AA-/	.	.	.
16DD-/	.	.	.
16AA-/	.	.	.
16DD-/	.	.	.
16AA-/	.	.	.
16DD-/	.	.	.
16AA-/	.	.	.
16DD-/	.	.	.
16AA-/	.	.	.
16DD-/	.	.	.
16AA-/JJ	.	.	.
=90	=90	=90	=90
16DD-/LL	2.DD-\	4r	.
16AA-/	.	.	.
16DD-/	.	.	.
16AA-/	.	.	.
16DD-/	.	8r	.
16AA-/	.	.	.
16DD-/	.	8a- 8A-/	.
16AA-/	.	.	.
16DD-/	.	(>8dd-L 8d-/	.
16AA-/	.	.	.
16DD-/	.	8ee-J 8e-/	.
16AA-/JJ	.	.	.
=91	=91	=91	=91
!	!	!	!LO:HP:b=2
16DD-/LL	2.DD-\	4.ff 4.f\	<
16AAn/	.	.	.
16DD-/	.	.	.
16AA/	.	.	.
16DD-/	.	.	.
16AA/	.	.	.
16DD-/	.	8ff 8f\	.
16AA/	.	.	.
16DD-/	.	8gg-L 8g-\	.
16AA/	.	.	.
16DD-/	.	8ffJ 8f\)	.
16AA/JJ	.	.	[
=92	=92	=92	=92
16DD-/LL	2.DD-\	(<8ffL 8f/	.
16BB-/	.	.	.
16DD-/	.	8ee-J 8e-/	.
16BB-/	.	.	.
.	.	&(<8qff &&(<8qf/	.
16DD-/	.	8ee-L&) 8e-/&)	.
16BB-/	.	.	.
16DD-/	.	8ddnJ 8dn/	.
16BB-/	.	.	.
16DD-/	.	4ee- 4e-/)	.
16BB-/	.	.	.
16DD-/	.	.	.
16BB-/JJ	.	.	.
=93	=93	=93	=93
!	!	!	!LO:HP:b=2
16DD-/LL	2DD-\	(<4.ee- 4.e-/	<
16BBn/	.	.	.
16DD-/	.	.	.
16BB/	.	.	.
16DD-/	.	.	.
16BB/	.	.	.
16DD-/	.	8ee- 8e-/	.
16BB/JJ	.	.	.
16DD-/LL	4DD-\	8ffL 8f/	.
16C/	.	.	.
16DD-/	.	8ee-J 8e-/	.
16C/JJ	.	.	[
=94	=94	=94	=94
!	!	!	!LO:DY:b=2
16DD-/LL	4DD-\	8ee-L 8e-/	f
16C/	.	.	.
16DD-/	.	8dd-J 8d-/	.
16C/JJ	.	.	.
!	!	!	!LO:HP:b=2
.	.	&(<8qee- &&(<8qe-/	>
16DD-/LL	2DD-\	8dd-L&) 8d-/&&)	.
16AA-/	.	.	.
16DD-/	.	8ccJ 8c/	.
16AA-/	.	.	.
16DD-/	.	4dd- 4d-/)	.
16AA-/	.	.	.
16DD-/	.	.	.
16AA-/JJ	.	.	]
*Xtremolo	*	*	*
!!LO:LB:g=original
=95	=95	=95	=95
4EE- 4AAA-^</	4ryy	2.r	pp
*tremolo	*	*	*
!LO:TX:b:Bi:t=trem.	!	!	!
16AAA-/LL	2AAA-\	.	.
16EE-/	.	.	.
16AAA-/	.	.	.
16EE-/	.	.	.
16AAA-/	.	.	.
16EE-/	.	.	.
16AAA-/	.	.	.
16EE-/JJ	.	.	.
=96	=96	=96	=96
16AAA-/LL	2.AAA-\	4r	.
16EE-/	.	.	.
16AAA-/	.	.	.
16EE-/	.	.	.
16AAA-/	.	8r	.
16EE-/	.	.	.
16AAA-/	.	(<8e- 8E-/	.
16EE-/	.	.	.
16AAA-/	.	8a-L 8A-/	.
16EE-/	.	.	.
16AAA-/	.	8b-J 8B-/)	.
16EE-/JJ	.	.	.
=97	=97	=97	=97
!	!	!	!LO:HP:b=2
16AAA-/LL	2.AAA-\	(<4.cc 4.c/	<
16EEn/	.	.	.
16AAA-/	.	.	.
16EE/	.	.	.
16AAA-/	.	.	.
16EE/	.	.	.
16AAA-/	.	8cc 8c/	.
16EE/	.	.	.
16AAA-/	.	8dd-L 8d-/	.
16EE/	.	.	.
16AAA-/	.	8ccJ 8c/	.
16EE/JJ	.	.	[
=98	=98	=98	=98
16AAA-/LL	2.AAA-\	8ccL 8c/	.
16FF/	.	.	.
16AAA-/	.	8b-J 8B-/	.
16FF/	.	.	.
.	.	&(<8qcc &&(<8qc/	.
16AAA-/	.	8b-L&) 8B-/&&)	.
16FF/	.	.	.
16AAA-/	.	8anJ 8An/	.
16FF/	.	.	.
16AAA-/	.	4b- 4B-/)	.
16FF/	.	.	.
16AAA-/	.	.	.
16FF/JJ	.	.	.
=99	=99	=99	=99
!	!	!	!LO:HP:b=2
16AAA-/LL	2AAA-\	(<4.b- 4.B-/	<
16FF#X/	.	.	.
16AAA-/	.	.	.
16FF#/	.	.	.
16AAA-/	.	.	.
16FF#/	.	.	.
16AAA-/	.	8b- 8B-/	.
16FF#/JJ	.	.	[[
16AAA-/LL	4AAA-\	8ccL 8c/	.
16GGn/	.	.	.
16AAA-/	.	8b-J 8B-/	.
16GG/JJ	.	.	.
=100	=100	=100	=100
!	!	!	!LO:DY:b=2
16AAA-/LL	2.AAA-\	8b-L 8B-/	ff
16AA-/	.	.	.
16AAA-/	.	8a-J 8A-/	.
16AA-/	.	.	.
.	.	&(<8qb- &&(<8qB-/	.
16AAA-/	.	8a-L&) 8A-/&&)	.
16AA-/	.	.	.
16AAA-/	.	8gnJ 8Gn/	.
16AA-/	.	.	.
16AAA-/	.	4a- 4A-/)	.
16AA-/	.	.	.
16AAA-/	.	.	.
16AA-/JJ	.	.	.
*Xtremolo	*	*	*
!!LO:LB:g=original
*v	*v	*	*
=101	=101	=101
*	*^	*
*	*clefF4	*clefF4	*
4AA- 4AAA-^/	4G- 4E-^>\	4ryy	.
*	*	*tremolo	*
!	!LO:TX:b:Bi:t=trem.	!	!
8r	2G-/	16G-\LL	.
.	.	16E-\	.
!LO:TX:b:Bi:t=marcato.	!	!	!
8A-\	.	16G-\	.
.	.	16E-\	.
8.c\L	.	16G-\	<
.	.	16E-\	.
.	.	16G-\	.
16d-\Jk	.	16E-\JJ	.
=102	=102	=102	=102
8e-'>\	2.G-/	16G-\LL	.
.	.	16E-\	.
8r	.	16G-\	.
.	.	16E-\	.
4AA- 4AAA-^</	.	16G-\	.
.	.	16E-\	.
.	.	16G-\	.
.	.	16E-\	.
4AA- 4AAA-^</	.	16G-\	[
.	.	16E-\	.
.	.	16G-\	.
.	.	16E-\JJ	.
*	*	*Xtremolo	*
=103	=103	=103	=103
4BB-- 4BBB--^</	4G- 4E-^>\	4ryy	.
*	*	*tremolo	*
8r	2G-/	16G-\LL	.
.	.	16E-\	.
8c\	.	16G-\	.
.	.	16E-\	.
8.e-\L	.	16G-\	<
.	.	16E-\	.
.	.	16G-\	.
16f\Jk	.	16E-\JJ	.
=104	=104	=104	=104
8g-'>\	2.G-/	16G-\LL	.
.	.	16E-\	.
8r	.	16G-\	.
.	.	16E-\	.
4BB-- 4BBB--^</	.	16G-\	.
.	.	16E-\	.
.	.	16G-\	.
.	.	16E-\	.
4BB-- 4BBB--^</	.	16G-\	[
.	.	16E-\	.
.	.	16G-\	.
.	.	16E-\JJ	.
*	*	*Xtremolo	*
=105	=105	=105	=105
*^	*	*	*
*	*^	*	*	*
*	*	*	*	*tremolo	*
4AA- 4AAA-^</	4ryy	4ryy	2.G-/	16G-\LL	.
.	.	.	.	16E-\	.
.	.	.	.	16G-\	.
.	.	.	.	16E-\	.
*tremolo	*	*	*	*	*
!LO:TX:a:Bi:t=trem.	!	!	!	!	!
16AA-/LL	2AA-\	4GG-^<\	.	16G-\	<
16C/	.	.	.	16E-\	.
16AA-/	.	.	.	16G-\	.
16C/	.	.	.	16E-\	.
16AA-/	.	4EE-^<\	.	16G-\	.
16C/	.	.	.	16E-\	.
16AA-/	.	.	.	16G-\	.
16C/JJ	.	.	.	16E-\JJ	.
=106	=106	=106	=106	=106	=106
16AA-/LL	2.AA-\	4CC^<\	2.G-/	16G-\LL	.
16C/	.	.	.	16E-\	.
16AA-/	.	.	.	16G-\	.
16C/	.	.	.	16E-\	.
16AA-/	.	4EE-^<\	.	16G-\	.
16C/	.	.	.	16E-\	.
16AA-/	.	.	.	16G-\	.
16C/	.	.	.	16E-\	.
16AA-/	.	4CC^<\	.	16G-\	[
16C/	.	.	.	16E-\	.
16AA-/	.	.	.	16G-\	.
16C/JJ	.	.	.	16E-\JJ	.
*Xtremolo	*	*	*	*Xtremolo	*
*	*	*	*clefG2	*clefG2	*
!!LO:LB:g=original
*	*v	*v	*	*	*
*v	*v	*	*	*
*	*v	*v	*
=107	=107	=107
!	!	!LO:DY:b:rj
4AAA-;>/	2ryy	f
8EE-^</L	.	.
8AA-^</J	.	.
!	!LO:TX:b:Bi:t=m.d.	!
8ryy	8C<^</	.
4ryy	(<16G-</LL	.
.	16B-</	.
.	16A-</	.
.	16c</JJ)	.
!LO:TX:a:Bi:t=m.s.	!	!
(>16g->\LL	4ryy	.
16b->\	.	.
16a->\	.	.
!LO:TX:a:B:t=Presto.	!	!
16cc>\JJ	.	.
!	!LO:TX:b:Bi:t=m.d.	!
4ryy	16gg-\LL	.
.	16bb-\	.
.	16aa-\	.
.	16ccc\JJ	.
!LO:TX:a:Bi:t=m.s.	!	!
16ggg->\LL	4ryy	.
16bbb->\	.	.
16aaa->\	.	.
16ccc>\JJ	.	.
4ryy	16gg-\LL	.
.	16bb-\	.
.	16aa-\	.
.	16cc\JJ	.
16g->/LL	4ryy	.
16b->/	.	.
16a->/	.	.
16c>/JJ)	.	.
(<16G-</LL	4ryy	.
16B-</	.	.
16A-</	.	.
16C</JJ	.	.
16F/LL	4ryy	.
16A-/	.	.
16G-/	.	.
16c/JJ)	.	.
4ryy	(>16f\LL	.
.	16a-\	.
.	16g-\	.
.	16cc\JJ	.
16ff>\LL	4ryy	.
16aa->\	.	.
16gg->\	.	.
16ff>\JJ	.	.
8ryy	[4>gg-;>\)	.
4ryy	.	.
!!LO:PB:g=original
.	(>16gg-\LL]	p <
.	16aa-\	.
2ryy	16gg-\	.
.	16ff\JJ	.
.	16gg-\LL	.
.	16aa-\	.
.	16gg-\	.
.	16ff\JJ	.
.	16gg-\LL	.
.	16aa-\	.
2ryy	16gg-\	.
.	16ff\JJ	.
.	16gg-\LL	.
.	16aa-\	.
.	16gg-\	.
.	16ff\JJ	.
.	16gg-\LL	.
.	16ff\	.
2ryy	16gg-\	.
.	16aa-\JJ	.
.	16gg-\LL	.
.	16ff\	.
.	16gg-\	.
.	16aa-\JJ	.
.	16gg-\LL	.
.	16ff\	.
1ryy	16gg-\	.
.	16aa-\JJ	[
.	16gg-\LL	.
.	16ff\	.
.	16gg-\	.
.	16aa-\JJ	.
!	!LO:TX:b:Bi:t=Prestissimo e leggiero..:dur=4q:ext=x:problem:text with extention lines	!
.	16gg-\LL	.
.	16ff\	.
.	16ee-\	.
.	16ff\JJ	.
.	16ee-\LL	.
.	16ddn\	.
.	16dd-X\	.
.	16ee-\JJ	.
.	16dd-\LL	.
.	16cc\	.
2ryy	16b-\	.
.	16cc\JJ	.
.	16b-\LL	.
.	16an\	.
.	16a-X\	.
.	16b-\JJ)	.
.	(<16a-/LL	.
.	16gn/	.
2ryy	16g-X/	.
.	16a-/JJ	.
.	16g-/LL	.
.	16f/	.
.	16e-/	.
.	16f/JJ	.
.	16e-/LL	.
.	16dn/	.
4ryy	16d-X/	.
.	16e-/JJ	.
.	16d-/LL	.
.	16c/	.
8ryy	16B-/	.
.	16c/JJ	.
!!LO:LB:g=original
4ryy	16B-</LL	.
.	16An</	.
.	16A-X</	.
.	16B-</JJ	.
1ryy	16A-</LL	.
.	16Gn</	.
.	16G-X</	.
.	16A-</JJ	.
.	16G-</LL	.
.	16F</	.
.	16E-</	.
.	16F</JJ	.
.	16E-</LL	.
.	16Dn</	.
.	16D-X</	.
.	16E-</JJ	.
.	16D-</LL	.
.	16C</	.
.	16BB-</)	.
.	16C</JJ	.
!LO:TX:a:Bi:t=sempre prestiss.	!	!
!LO:TUP:a:problem:klamra łukowa	!	!
(<24BB-/LL	8ryy	.
24AA-/JJ)	.	.
(>24BB--\LL	.	.
24AA-\JJ)	4ryy	.
(<24BB-X/LL	.	<
24AA-/JJ)	.	.
!LO:TUP:a:problem:klamra łukowa	!	!
(>24BB--\LL	.	.
24AA-\JJ)	.	.
(<24BB-X/LL	.	.
24AA-/JJ)	4ryy	.
(>24BB--\LL	.	.
24AA-\JJ)	.	[
!LO:TUP:a:problem:klamra łukowa	!	!
!LO:N:acc=n-	!	!
(<24BB-X/LL	.	>
24AA-/JJ)	.	.
(>24BB-\LL	.	.
24AA-\JJ)	4ryy	.
(<24BB-X/LL	.	.
24AA-/JJ)	.	]
(>16BB--\LL	.	.
16AA-\JJ)	.	.
!LO:TX:a:Bi:t=lento.	!	!
(<8BB-X^</L	2ryy	.
8AA-^</	.	.
8D-^</	.	.
8E-^</J)	.	.
*	*clefF4	*
=108||	=108||	=108||
!!!OMD: Lento can-tabile
*>E	*>E	*
!	!LO:TX:a:t=P:problem:oznaczenie tempa na łamaniu systemu	!
!	!LO:TX:b:Bi:t=con somma	!
4DD-/	4.F^>\	.
4f 4d- 4A-\	.	.
.	8F\	.
4f 4d- 4A-\	(>8G-\L	.
.	8F\J)	.
!!LO:LB:g=original
=109	=109	=109
!	!LO:TX:b:Bi:t=espressione.	!
4AAA-/	(>8F\L	.
.	8E-\J)	.
.	(<16qqDn/LL	.
.	16qqE-/	.
.	16qqF/JJ)	.
8g- 8c 8A-\	8E-'>\	.
16r	16r	.
!LO:S:s=2:note:problem:note-level slur	!	!
16g- (>16Bn 16A-\	(>16D\	.
!LO:S:s=2:note:problem:note-level slur	!	!
4g- 4c) 4A-\	4E-\)	.
=110	=110	=110
4AAA-/	4.E-\	.
4g- 4c 4A-\	.	.
.	8E-\	.
4g- 4c 4A-\	(>8G-\L	.
.	8F\J)	.
=111	=111	=111
4DD-/	(>8E-\L	.
.	8D-\J)	.
.	(<16qqC/LL	.
.	16qqD-/	.
.	16qqE-/JJ)	.
8f 8d- 8A-\	8D-'>\	.
16r	16r	.
(>16en 16d- 16A-\	(<16C/	.
8fL 8d- 8A-\)	4D-\)	.
(>8AA-\J	.	.
=112	=112	=112
4DD-/)	4.F\	.
4f 4d- 4A-\	.	.
.	(>8A-\	.
4f 4d- 4A-\	8G-\L	.
.	8F\J)	.
=113	=113	=113
4GG-/	(>8F\L	.
.	8E-\J	.
.	16qqDn/LL	.
.	16qqE-/	.
.	16qqF/JJ	.
4e- 4B- 4G-\	8E-\L	.
.	8Dn\J	.
4e- 4B- 4G-\	8E-\L	.
.	8B-\J)	.
!!LO:LB:g=original
=114	=114	=114
4AAA-/	(>4.B-^>\	.
8g-: 8c: 8E-:\	.	.
8r	8A-\	>
4r	8G-\L	.
.	8E-\J)	]
=115	=115	=115
4DD-/	4D-\	.
4f 4d- 4A-\	8r	.
.	(<8AA-/L	<
4r	8D-/	.
.	8F/J)	[
=116	=116	=116
4DD-/	4.A-^>\	.
4f 4d- 4A-\	.	.
.	8A-\	.
4f 4d- 4A-\	(>8B-\L	.
.	8F\J)	.
=117	=117	=117
4CC/	(>8A-^>\L	.
.	8Gn\J	.
.	16qqG-X/LL	.
.	16qqA-/JJ	.
4g- 4c 4A-\	8G-X\L	.
.	8F\J	.
4g- 4c 4A-\	8G-\L	.
.	8e-\J)	.
=118	=118	=118
4AAA-/	(>4.e-^>\	.
8g-: 8c: 8A-: 8E-:\	.	.
8r	8c\L	.
4r	8A-\	.
.	8E-\J)	.
!!LO:LB:g=original
=119	=119	=119
4DD-/	(>8G-^>\L	.
.	8F\J	.
.	8qG-/	.
4f 4d- 4A-\	8F\L	.
.	8En\J	.
4f 4d- 4A-\	8F\L	.
.	8d-\J)	.
=120	=120	=120
4FF/	(>4.d-^>\	.
8a-: 8d-: 8A-: 8F:\	.	.
8r	8A-\	.
4r	8G-\L	.
.	8F\J)	.
=121	=121	=121
4GG-/	(>8F\L	.
.	8E-\J	.
.	16qqDn/LL	.
.	16qqE-/	.
.	16qqF/JJ	.
4e- 4B- 4G-\	8E-\L	.
.	8Dn\J	.
4e- 4B- 4G-\	8E-\L	.
.	8B-\J)	.
=122	=122	=122
4AA-/	(>4.B-^>\	.
8g-: 8c: 8E-:\	.	.
8r	8A-\	>
4r	8G-\L	.
.	8C\J)	]
*	*tuplet	*
=123	=123	=123
4DD-/	4D-\	.
4f 4d- 4A-\	16r	.
.	16qqAA-/LL	.
.	16qqBB-/JJ	.
.	16AA-/LL	.
.	16GGn/	.
.	16AA-/JJ	.
!	!LO:TUP:a	!
4r	(>24BB-'>\LL	.
.	24C'>\	.
.	24D-'>\	.
.	24E-'>\	.
.	24F'>\	.
.	24G-X'>\JJ)	.
!!LO:PB:g=original
=124	=124	=124
4DD-/	4A-\	.
!	!LO:TUP:a:problem:klamra łukowa	!
4f 4d- 4A-\	24r	.
.	24A-\LL	.
.	24B-\	.
.	24A-\	.
.	24Gn\	.
.	24A-\JJ	.
!	!LO:TUP:a:problem:klamra łukowa	!
4a-: 4dn: 4B-: 4BB-:\	12c-X\	pp
.	12B-^>\L	.
.	12F\J	.
*	*Xtuplet	*
=125	=125	=125
4EE-/	(>8A-\L	.
.	8Gn\J	.
.	16qqG-X/LL	.
.	16qqA-/JJ	.
4g- 4e- 4B-\	8G-X\L	.
.	8F\J	.
4g- 4e- 4B-\	8G-\L	.
.	8e-\J)	.
=126	=126	=126
4CC/	(>4.e-^>\	.
8g-: 8c: 8A-: 8E-:\	.	.
8r	8c\L	.
4r	8A-\	.
.	8E-\J)	.
=127	=127	=127
4DD-/	(>8G-\L	.
.	8F\J	.
.	&(<8qG-/	.
4f 4d- 4A-\	8F\L&)	.
.	8En\J	.
4f 4d- 4A-\	8F\L	.
.	8d-\J)	.
=128	=128	=128
4FF/	(>4.d-^>\	.
8a-: 8d-: 8A-: 8F:\	.	.
8r	8A-\L	.
4r	8G-\	.
.	8F\J)	.
!!LO:LB:g=original
=129	=129	=129
4GG-/	(>8F^>\L	.
.	8E-\J)	.
.	(<16qqDn/LL	.
.	16qqE-/	.
.	16qqF/JJ	.
4e- 4B- 4G-\	2E-T\)	<
4r	.	[
.	(<16qqDn/LL	.
.	16qqE-/	.
.	16qqEn/	.
.	16qqF/	.
.	16qqG-/	.
.	16qqGn/	.
.	16qqA-/	.
.	16qqAn/	.
.	16qqc/	.
.	16qqB-/	.
.	16qqG-X/	.
.	16qqE-X/JJ)	.
=130	=130	=130
8r	(>4.B--^>\	.
!LO:TX:a:t=P:problem:mixed beam	!	!
8AAA-/L	.	.
8g-:J 8c: 8E-:\	.	.
8r	8A-\L	>
4r;>	8.G-;>\	.
.	16E-\Jk)	.
*tuplet	*	*
=131	=131	=131
!	!LO:TX:b:B:t=a tempo.	!
!	!	!LO:DY:b=2:rj
!LO:TUP:a	!	!
(>24DD-\LL	8D-'>\	p
24AA-\	.	.
24D-\	.	.
24F\	8r	.
24A-\	.	.
24d-\JJ)	.	.
(>4f\	4r	.
8a- 8d-'>\)	4r	.
8r	.	.
*	*clefG2	*
=132	=132	=132
!LO:TUP:a	!	!
(>24DD-\LL	2.r	.
24AA-\	.	.
24D-\	.	.
24F\	.	.
24A-\	.	.
24d-\JJ)	.	.
(>4f\	.	.
8a- 8d-'>\)	.	.
8r	.	.
*Xtuplet	*	*
!!LO:LB:g=original
=133	=133	=133
*	*^	*
(>24DD-\LL	24fffLL 24ff\	12fff/	fp
24AA-\	24ddd- 24aa-\	.	.
24D-\	24ddd- 24aa-\	6ryy	.
24F\	24ddd- 24aa-\	.	.
24A-\	24ddd- 24aa-\	.	.
24d-\JJ)	24ddd-JJ 24aa-\	.	.
(>4f\	24ddd-LL 24aa-\	6.ryy	.
.	24ddd- 24aa-\	.	.
.	24ddd- 24aa-\	.	.
.	24ddd- 24aa-\	.	.
.	24ddd- 24aa-\	.	.
.	24ddd-JJ 24aa-\	.	.
8a- 8d-'>\)	24ggg-LL 24gg-\	12ggg-/	.
.	24ddd- 24aa-\	.	.
.	24ddd- 24aa-\	12ryy	.
8r	24ddd- 24aa-\	.	.
.	24fff 24ff\	12fff/	.
.	24ddd-JJ 24aa-\	.	.
=134	=134	=134	=134
(>24AA-\LL	24fffLL 24ff\	12fff/	.
24E-\	24aa- 24gg-\	.	.
24A-\	24aa- 24gg-\	12ryy	.
24c\	24aa- 24gg-\	.	.
24e-\	24eee- 24ee-\	12eee-/	.
24a-\JJ)	24aa-JJ 24gg-\	.	.
*clefG2	*	*	*
8cc'>\	24eee-LL 24ee-\	12eee-/	.
.	24aa- 24gg-\	.	.
.	24aa- 24gg-\	12ryy	.
8r	24aa- 24gg-\	.	.
.	24dddn 24ddn\	12ddd/	.
.	24aa-JJ 24gg-\	.	.
8cc 8a- 8g-'>\	24eee-LL 24ee-\	12eee-/	.
.	24aa- 24gg-\	.	.
.	24aa- 24gg-\	6ryy	.
8r	24aa- 24gg-\	.	.
.	24aa- 24gg-\	.	.
.	24aa-JJ 24gg-\	.	.
*clefF4	*	*	*
!!LO:LB:g=original
=135	=135	=135	=135
(>24AA-\LL	24eee-LL 24ee-\	12eee-/	.
24E-\	24aa- 24gg-\	.	.
24A-\	24aa- 24gg-\	6ryy	.
24c\	24aa- 24gg-\	.	.
24e-\	24aa- 24gg-\	.	.
24a-\JJ)	24aa-JJ 24gg-\	.	.
*clefG2	*	*	*
8cc'>\	24aa-LL 24gg-\	6ryy	.
.	24aa- 24gg-\	.	.
.	24aa- 24gg-\	.	.
8r	24aa- 24gg-\	.	.
.	24eee- 24ee-\	12eee-/	.
.	24aa-JJ 24gg-\	.	.
8cc 8a- 8g- 8e-'</	24fffLL 24ff\	12fff/	.
.	24aa- 24gg-\	.	.
.	24aa- 24gg-\	12ryy	.
8r	24aa- 24gg-\	.	.
.	24eee- 24ee-\	12eee-/	.
.	24aa-JJ 24gg-\	.	.
*clefF4	*	*	*
=136	=136	=136	=136
(>24DD-\LL	24eee-LL 24ee-\	12eee-/	.
24AA-\	24ccc 24aa-\	.	.
24D-\	24ccc 24aa-\	12ryy	.
24F\	24ccc 24aa-\	.	.
24A-\	24ddd- 24dd-\	12ddd-/	.
24d-\JJ)	24cccJJ 24aa-\	.	.
8f'>\	24ddd-LL 24dd-\	12ddd-/	.
.	24ccc 24aa-\	.	.
.	24ccc 24aa-\	12ryy	.
8ryy	24ccc 24aa-\	.	.
.	24ccc 24cc\	12ccc/	.
.	24cccJJ 24aa-\	.	.
8f 8d- 8A-'>\	24ddd-LL 24dd-\	12ddd-/	.
.	24ccc 24aa-\	.	.
.	24ccc 24aa-\	6ryy	.
8r	24ccc 24aa-\	.	.
.	24ccc 24aa-\	.	.
.	24cccJJ 24aa-\	.	.
!!LO:LB:g=original
=137	=137	=137	=137
(>24DD-\LL	24fffLL 24ff\	12fff/	.
24AA-\	24ddd- 24aa-\	.	.
24D-\	24ddd- 24aa-\	6ryy	.
24F\	24ddd- 24aa-\	.	.
24A-\	24ddd- 24aa-\	.	.
24d-\JJ)	24ddd-JJ 24aa-\	.	.
8f'>\	24ddd-LL 24aa-\	6ryy	.
.	24ddd- 24aa-\	.	.
.	24ddd- 24aa-\	.	.
8r	24ddd- 24aa-\	.	.
.	24aaa- 24aa-\	12aaa-/	.
.	24ddd-JJ 24aa-\	.	.
8f 8d- 8A-'>\	24ggg-LL 24gg-\	12ggg-/	.
.	24ddd- 24aa-\	.	.
.	24ddd- 24aa-\	12ryy	.
8r	24ddd- 24aa-\	.	.
.	24fff 24ff\	12fff/	.
.	24ddd-JJ 24aa-\	.	.
=138	=138	=138	=138
(>24GG-\LL	24fffLL 24ff\	12fff/	.
24BB-\	24bb- 24gg-\	.	.
24E-\	24bb- 24gg-\	12ryy	.
24G-\	24bb- 24gg-\	.	.
24B-\	24eee- 24ee-\	12eee-/	.
24e-\JJ)	24bb-JJ 24gg-\	.	.
8g-'>\	24eee-LL 24ee-\	12eee-/	.
.	24bb- 24gg-\	.	.
.	24bb- 24gg-\	12ryy	.
8r	24bb- 24gg-\	.	.
.	24dddn 24ddn\	12ddd/	.
.	24bb-JJ 24gg-\	.	.
8b- 8g- 8e-'>\	24eee-LL 24ee-\	12eee-/	.
.	24bb- 24gg-\	.	.
.	24bb- 24gg-\	6ryy	.
8r	24bb- 24gg-\	.	.
.	24bb- 24gg-\	.	.
.	24bb-JJ 24gg-\	.	.
!!LO:PB:g=original
=139	=139	=139	=139
*	*8va	*	*
(>24AA-\LL	24bbb-LL 24bb-\	12bbb-/	.
24E-\	24eee- 24ccc\	.	.
24A-\	24eee- 24ccc\	6ryy	.
24c\	24eee- 24ccc\	.	.
24e-\	24eee- 24ccc\	.	.
24a-\JJ)	24eee-JJ 24ccc\	.	.
*clefG2	*	*	*
8cc'>\	24eee-LL 24ccc\	6ryy	.
.	24eee- 24ccc\	.	.
.	24eee- 24ccc\	.	.
8r	24eee- 24ccc\	.	.
.	24aaa- 24aa-\	12aaa-/	.
.	24eee-JJ 24ccc\	.	.
8cc 8a- 8g- 8e-'</	24ggg-LL 24gg-\	12ggg-/	.
.	24eee- 24ccc\	.	.
.	24eee- 24ccc\	12ryy	.
8r	24eee- 24ccc\	.	.
.	24eee- 24ee-\	12eee-/	.
.	24aa-JJ 24gg-\	.	.
*	*X8va	*	*
*clefF4	*	*	*
=140	=140	=140	=140
(>24DD-\LL	24fffLL 24ff\	12fff/	.
24AA-\	24ccc 24aa-\	.	.
24D-\	24ccc 24aa-\	6ryy	.
24F\	24ccc 24aa-\	.	.
24A-\	24ccc 24aa-\	.	.
24d-\JJ)	24cccJJ 24aa-\	.	.
8f'>\	24cccLL 24aa-\	2ryy	.
.	24ccc 24aa-\	.	.
.	24ccc 24aa-\	.	.
8r	24ccc 24aa-\	.	.
.	24ccc 24aa-\	.	.
.	24cccJJ 24aa-\	.	.
8f 8d- 8A-'>\	24cccLL 24aa-\	.	.
.	24ccc 24aa-\	.	.
.	24ccc 24aa-\	.	.
8r	24ccc 24aa-\	.	.
.	24ccc 24aa-\	.	.
.	24cccJJ 24aa-\	.	.
!!LO:LB:g=original
=141	=141	=141	=141
*	*8va	*	*
(>24D-\LL	24aaa-LL 24aa-\	12aaa-/	.
24A-\	24fff 24ddd-\	.	.
24d-\	24fff 24ddd-\	6ryy	.
24f\JJ)	24fff 24ddd-\	.	.
*clefG2	*	*	*
(>24a-\LL	24fff 24ddd-\	.	.
24dd-\JJ)	24fffJJ 24ddd-\	.	.
8ff'>\	24fffLL 24ddd-\	6ryy	.
.	24fff 24ddd-\	.	.
.	24fff 24ddd-\	.	.
8r	24fff 24ddd-\	.	.
.	24aaa- 24aa-\	12aaa-/	.
.	24fffJJ 24ddd-\	.	.
8ff 8dd- 8a-'>\	24bbb-LL 24bb-\	12bbb-/	.
.	24fff 24ddd-\	.	.
.	24fff 24ddd-\	12ryy	.
8r	24fff 24ddd-\	.	.
.	24aaa- 24aa-\	12aaa-/	.
.	24fffJJ 24ddd-\	.	.
*clefF4	*	*	*
=142	=142	=142	=142
(>24AA-\LL	24aaa-LL 24aa-\	12aaa-/	.
24E-\	24eee- 24ccc\	.	.
24A-\	24eee- 24ccc\	12ryy	.
24c\	24eee- 24ccc\	.	.
24e-\	24ggg- 24gg-\	12ggg-/	.
24a-\JJ)	24eee-JJ 24ccc\	.	.
*clefG2	*	*	*
8cc'>\	24ggg-LL 24gg-\	12ggg-/	.
.	24eee- 24ccc\	.	.
.	24eee- 24ccc\	12ryy	.
8r	24eee- 24ccc\	.	.
.	24fff 24ff\	12fff/	.
.	24eee-JJ 24ccc\	.	.
8ee- 8cc 8a- 8g-'>\	24ggg-LL 24gg-\	12ggg-/	.
.	24eee- 24ccc\	.	.
.	24eee- 24ccc\	6ryy	.
8r	24eee- 24ccc\	.	.
.	24eee- 24ccc\	.	.
.	24eee-JJ 24ccc\	.	.
*clefF4	*	*	*
!!LO:LB:g=original
=143	=143	=143	=143
(>24AA-\LL	24eeee-LL 24eee-\	12eeee-/	.
24E-\	24aaa- 24ggg-\	.	.
24A-\	24aaa- 24ggg-\	6ryy	.
24c\	24aaa- 24ggg-\	.	.
24e-\	24aaa- 24ggg-\	.	.
24a-\JJ)	24aaa-JJ 24ggg-\	.	.
*clefG2	*	*	*
8cc'>\	24aaa-LL 24ggg-\	6ryy	.
.	24aaa- 24ggg-\	.	.
.	24aaa- 24ggg-\	.	.
8r	24aaa- 24ggg-\	.	.
.	24cccc 24ccc\	12cccc/	.
.	24aaa-JJ 24ggg-\	.	.
8ee- 8cc 8a- 8g-'>\	24aaa-LL 24aa-\	12aaa-/	.
.	24eee- 24ccc\	.	.
.	24eee- 24ccc\	12ryy	.
8r	24eee- 24ccc\	.	.
.	24ggg- 24gg-\	12ggg-/	.
.	24eee-JJ 24ccc\	.	.
*clefF4	*	*	*
=144	=144	=144	=144
(>24DD-\LL	24ggg-LL 24gg-\	12ggg-/	.
24AA-\	24ddd- 24aa-\	.	.
24D-\	24ddd- 24aa-\	12ryy	.
24F\	24ddd- 24aa-\	.	.
24A-\	24fff 24ff\	12fff/	.
24d-\JJ)	24ddd-JJ 24aa-\	.	.
8f'>\	24fffLL 24ff\	12fff/	.
.	24ddd- 24aa-\	.	.
.	24ddd- 24aa-\	12ryy	.
8r	24ddd- 24aa-\	.	.
.	24eeen 24een\	12eee/	.
.	24ddd-JJ 24aa-\	.	.
8f 8d- 8A-'>\	24fffLL 24ff\	12fff/	.
.	24ddd- 24aa-\	.	.
.	24ddd- 24aa-\	6ryy	.
8r	24ddd- 24aa-\	.	.
.	24ddd- 24aa-\	.	.
.	24ddd-JJ 24aa-\	.	.
!!LO:LB:g=original
=145	=145	=145	=145
(>24FF\LL	24dddd-LL 24ddd-\	12dddd-/	.
24AA-\	24aaa- 24fff\	.	.
24D-\	24aaa- 24fff\	6ryy	.
24F\	24aaa- 24fff\	.	.
24A-\	24aaa- 24fff\	.	.
24d-\JJ)	24aaa-JJ 24fff\	.	.
8f'>\	24aaa-LL 24fff\	6ryy	.
.	24aaa- 24fff\	.	.
.	24aaa- 24fff\	.	.
8r	24aaa- 24fff\	.	.
.	24aaa- 24aa-\	12aaa-/	.
.	24fffJJ 24ddd-\	.	.
8f 8d- 8A-'>\	24ggg-LL 24gg-\	12ggg-/	.
.	24ddd- 24aa-\	.	.
.	24ddd- 24aa-\	12ryy	.
8r	24ddd- 24aa-\	.	.
.	24fff 24ff\	12fff/	.
.	24ddd-JJ 24aa-\	.	.
=146	=146	=146	=146
(>24GG-\LL	24fffLL 24ff\	12fff/	.
24BB-\	24bb- 24gg-\	.	.
24E-\	24bb- 24gg-\	12ryy	.
24G-\	24bb- 24gg-\	.	.
24B-\	24eee- 24ee-\	12eee-/	.
24e-\JJ)	24bb-JJ 24gg-\	.	.
*clefG2	*	*	*
8g-'</	24eee-LL 24ee-\	12eee-/	.
.	24bb- 24gg-\	.	.
.	24bb- 24gg-\	12ryy	.
8r	24bb- 24gg-\	.	.
.	24dddn 24ddn\	12ddd/	.
.	24bb-JJ 24gg-\	.	.
8b- 8g- 8e-'</	24eee-LL 24ee-\	12eee-/	.
.	24bb- 24gg-\	.	.
.	24bb- 24gg-\	6ryy	.
8r	24bb- 24gg-\	.	.
.	24bb- 24gg-\	.	.
.	24bb-JJ 24gg-\	.	.
*clefF4	*	*	*
!!LO:LB:g=original
=147	=147	=147	=147
(>24AA-\LL	24bbb-LL 24bb-\	12bbb-/	.
24E-\	24eee- 24ccc\	.	.
24A-\	24eee- 24ccc\	6ryy	.
24c\	24eee- 24ccc\	.	.
24e-\	24eee- 24ccc\	.	.
24a-\JJ)	24eee-JJ 24ccc\	.	.
*clefG2	*	*	*
8cc'>\	24eee-LL 24ccc\	6ryy	.
.	24eee- 24ccc\	.	.
.	24eee- 24ccc\	.	.
8r	24eee- 24ccc\	.	.
.	24aaa- 24aa-\	12aaa-/	.
.	24eee-JJ 24ccc\	.	.
8ee- 8cc 8a- 8g-'>\	24ggg-LL 24gg-\	12ggg-/	.
.	24eee- 24ccc\	.	.
.	24eee- 24ccc\	12ryy	.
8r	24eee- 24ccc\	.	.
.	24eee- 24ee-\	12eee-/	.
.	24aa-JJ 24gg-\	.	.
*clefF4	*	*	*
=148	=148	=148	=148
(>24DD-\LL	24ddd-LL 24dd-\	12ddd-/	.
24AA-\	24aa- 24ff\	.	.
24D-\	24aa- 24ff\	6ryy	.
24F\	24aa- 24ff\	.	.
24A-\	24aa- 24ff\	.	.
24d-\JJ)	24aa-JJ 24ff\	.	.
8f'>\	24aa-LL 24ff\	2ryy	.
.	24aa- 24ff\	.	.
.	24aa- 24ff\	.	.
8r	24aa- 24ff\	.	.
.	24aa- 24ff\	.	.
.	24aa-JJ 24ff\	.	.
8f 8d- 8A-'>\	24aa-LL 24ff\	.	.
.	24aa- 24ff\	.	.
.	24aa- 24ff\	.	.
8r	24aa- 24ff\	.	.
.	24aa- 24ff\	.	.
.	24aa-JJ 24ff\	.	.
!!LO:PB:g=original
=149	=149	=149	=149
(>24D-\LL	24aaa-LL 24aa-\	12aaa-/	.
24A-\	24fff 24ddd-\	.	.
24d-\	24fff 24ddd-\	6ryy	.
24f\JJ)	24fff 24ddd-\	.	.
*clefG2	*	*	*
(<24a-/LL	24fff 24ddd-\	.	.
24dd-/JJ)	24fffJJ 24ddd-\	.	.
8ff'>\	24fffLL 24ddd-\	12ryy	.
.	24fff 24ddd-\	.	.
.	24aaa- 24aa-\	12aaa-/	.
8r	24fff 24ddd-\	.	.
.	24aaan 24aan\	12aaa/	.
.	24fffJJ 24ddd-\	.	.
!	!	!	!LO:DY:b=2:rj
8ddn: 8b-: 8f: 8B-:/	24cccc-XLL 24ccc-X\	12cccc-/	p
.	24fff 24dddn\	.	.
.	24bbb- 24bb-\	12bbb-/	.
!LO:TX:a:t=P:problem:w źródle klucz basowy dorysowany ołówkiem [nieuwzględniony w kodzie]	!	!	!
8r	24fff 24ddd\	.	.
.	24fff 24ff\	12fff/	.
.	24dddJJ 24bb-\	.	.
=150	=150	=150	=150
(<24E-/LL	24aaa-LL 24aa-\	12aaa-/	.
24G-/	24eee- 24bb-\	.	.
24B-/	24eee- 24bb-\	12ryy	.
24e-/	24eee- 24bb-\	.	.
24g-/	24gggn 24ggn\	12ggg/	.
24b-/JJ)	24eee-JJ 24bb-\	.	.
8ee-'>\	24ggg-XLL 24gg-X\	12ggg-/	.
.	24eee- 24bb-\	.	.
.	24eee- 24bb-\	12ryy	.
8r	24eee- 24bb-\	.	.
.	24fff 24ff\	12fff/	.
.	24eee-JJ 24bb-\	.	.
8ee- 8b- 8g-'>\	24ggg-LL 24gg-\	12ggg-/	.
.	24eee- 24bb-\	.	.
.	24eee- 24bb-\	6ryy	.
8r	24eee- 24bb-\	.	.
.	24eee- 24bb-\	.	.
.	24eee-JJ 24bb-\	.	.
!!LO:LB:g=original
=151	=151	=151	=151
(<24A-/LL	24eeee-LL 24eee-\	12eeee-/	.
24e-/	24aaa- 24ggg-\	.	.
24a-/	24aaa- 24ggg-\	6ryy	.
24cc/	24aaa- 24ggg-\	.	.
24ee-/	24aaa- 24ggg-\	.	.
24aa-/JJ)	24aaa-JJ 24ggg-\	.	.
8ccc'>\	24aaa-LL 24ggg-\	6ryy	.
.	24aaa- 24ggg-\	.	.
.	24aaa- 24ggg-\	.	.
8r	24aaa- 24ggg-\	.	.
.	24cccc 24ccc\	12cccc/	.
.	24aaa-JJ 24ggg-\	.	.
8ee- 8cc 8a- 8g-'>\	24aaa-LL 24aa-\	12aaa-/	.
.	24eee- 24ccc\	.	.
.	24eee- 24ccc\	12ryy	.
8r	24eee- 24ccc\	.	.
.	24ggg- 24gg-\	12ggg-/	.
.	24eee-JJ 24ccc\	.	.
*clefF4	*	*	*
=152	=152	=152	=152
(<24DD-/LL	24ggg-LL 24gg-\	12ggg-/	.
24AA-/	24ddd- 24aa-\	.	.
24D-/	24ddd- 24aa-\	12ryy	.
24F/	24ddd- 24aa-\	.	.
24A-/	24fff 24ff\	12fff/	.
24d-/JJ)	24ddd-JJ 24aa-\	.	.
.	(<8qggg- &(<8qgg-/	.	.
8f'>\	24fffLL) 24ff\&)	12fff/	.
.	24ddd- 24aa-\	.	.
.	24ddd- 24aa-\	12ryy	.
8r	24ddd- 24aa-\	.	.
.	24eeen 24een\	12eee/	.
.	24ddd-JJ 24aa-\	.	.
8f 8d- 8A-'>\	24fffLL 24ff\	12fff/	.
.	24ddd- 24aa-\	.	.
.	24ddd- 24aa-\	6ryy	.
8r	24ddd- 24aa-\	.	.
.	24ddd- 24aa-\	.	.
.	24ddd-JJ 24aa-\	.	.
*clefG2	*	*	*
!!LO:LB:g=original
=153	=153	=153	=153
(<24F/LL	24dddd-LL 24ddd-\	12dddd-/	.
24A-/	24aaa- 24fff\	.	.
24d-/	24aaa- 24fff\	6ryy	.
24f/	24aaa- 24fff\	.	.
24a-/	24aaa- 24fff\	.	.
24dd-/JJ)	24aaa-JJ 24fff\	.	.
8ff'>\	24aaa-LL 24fff\	6ryy	.
.	24aaa- 24fff\	.	.
.	24aaa- 24fff\	.	.
8r	24aaa- 24fff\	.	.
.	24aaa- 24aa-\	12aaa-/	.
.	24fffJJ 24ddd-\	.	.
8dd- 8a- 8f'</	24ggg-LL 24gg-\	12ggg-/	.
.	24ddd- 24aa-\	.	.
.	24ddd- 24aa-\	12ryy	.
8r	24ddd- 24aa-\	.	.
.	24fff 24ff\	12fff/	.
.	24ddd-JJ 24aa-\	.	.
*clefF4	*	*	*
=154	=154	=154	=154
(>24GG-\LL	24fffLL 24ff\	12fff/	.
24BB-\	24bb- 24gg-\	.	.
24E-\	24bb- 24gg-\	12ryy	.
24G-\	24bb- 24gg-\	.	.
24B-\	24eee- 24ee-\	12eee-/	.
24e-\JJ)	24bb-JJ 24gg-\	.	.
*clefG2	*	*	*
.	(<8qggg- &(<8qgg-/	.	.
8g-'</	24eee-LL) 24ee-\&)	12eee-/	.
.	24bb- 24gg-\	.	.
.	24bb- 24gg-\	12ryy	.
8r	24bb- 24gg-\	.	.
.	24dddn 24ddn\	12ddd/	.
.	24bb-JJ 24gg-\	.	.
8b- 8g- 8e-'</	24eee-LL 24ee-\	12eee-/	.
.	24bb- 24gg-\	.	.
.	24bb- 24gg-\	6ryy	.
8r	24bb- 24gg-\	.	.
.	24bb- 24gg-\	.	.
.	24bb-JJ 24gg-\	.	.
!!LO:LB:g=original
=155	=155	=155	=155
(<24A-/LL	24bbb-LL 24bb-\	12bbb-/	.
24e-/	24eee- 24ccc\	.	.
24a-/	24eee- 24ccc\	6ryy	.
24cc/	24eee- 24ccc\	.	.
24ee-/	24eee- 24ccc\	.	.
24aa-/JJ)	24eee-JJ 24ccc\	.	.
8ccc'>\	24eee-LL 24ccc\	6ryy	.
.	24eee- 24ccc\	.	.
.	24eee- 24ccc\	.	.
8r	24eee- 24ccc\	.	.
.	24aaa- 24aa-\	12aaa-/	.
.	24eee-JJ 24ccc\	.	.
8ee- 8cc 8a- 8g-'>\	24ggg-LL 24gg-\	12ggg-/	.
.	24eee- 24ccc\	.	.
.	24eee- 24ccc\	12ryy	.
8r	24eee- 24ccc\	.	.
.	24eee- 24ee-\	12eee-/	.
.	24aa-JJ 24gg-\	.	.
*	*X8va	*	*
*clefF4	*	*	*
=156	=156	=156	=156
(<24DD-/LL	24ddd-LL 24dd-\	12ddd-/	.
24AA-/	24aa- 24ff\	.	.
24D-/	24aa- 24ff\	6ryy	.
24F/	24aa- 24ff\	.	.
24A-/	24aa- 24ff\	.	.
24d-/JJ)	24aa-JJ 24ff\	.	.
8f'>\	24aa-LL 24ff\	4ryy	.
.	24aa- 24ff\	.	.
.	24aa- 24ff\	.	.
8r	24aa- 24ff\	.	.
.	24aa- 24ff\	.	.
.	24aa-JJ 24ff\	.	.
8f 8d- 8A-'>\	24ddd-LL 24dd-\	12ddd-/	.
.	24aa- 24ff\	.	.
.	24aa- 24ff\	6ryy	.
8r	24aa- 24ff\	.	.
.	24aa- 24ff\	.	.
.	24aa-JJ 24ff\	.	.
!!LO:LB:g=original
=157	=157	=157	=157
(>24D-LL 24DD-\	24cccLL 24cc\	12ccc/	.
24E-\	24gg- 24ee-\	.	.
24G-\	24gg- 24ee-\	6ryy	.
24B--\	24gg- 24ee-\	.	.
24c\	24gg- 24ee-\	.	.
24e-\JJ)	24gg-JJ 24ee-\	.	.
(>12g-^>\L	24gg-LL 24ee-\	6ryy	.
.	24gg- 24ee-\	.	.
12f\	24gg- 24ee-\	.	.
.	24gg- 24ee-\	.	.
12e-\J)	24ccc 24cc\	12ccc/	.
.	24gg-JJ 24ee-\	.	.
(>12e-^>\L	24cccLL 24cc\	12ccc/	.
.	24gg- 24ee-\	.	.
12d-\	24ddd- 24dd-\	12ddd-/	.
.	24gg- 24ee-\	.	.
12c\J)	24eee- 24ee-\	12eee-/	.
.	24gg-JJ 24ee-\	.	.
=158	=158	=158	=158
(<24DD-/LL	24ddd-LL 24dd-\	12ddd-/	.
24AA-/	24aa- 24ff\	.	.
24D-/	24aa- 24ff\	6ryy	.
24F/	24aa- 24ff\	.	.
24A-/	24aa- 24ff\	.	.
24d-/JJ)	24aa-JJ 24ff\	.	.
8f'>\	24aa-LL 24ff\	4ryy	.
.	24aa- 24ff\	.	.
.	24aa- 24ff\	.	.
8r	24aa- 24ff\	.	.
.	24aa- 24ff\	.	.
.	24aa-JJ 24ff\	.	.
8f 8d- 8A-'>\	24ddd-LL 24dd-\	12ddd-/	.
.	24aa- 24ff\	.	.
.	24aa- 24ff\	6ryy	.
8r	24aa- 24ff\	.	.
.	24aa- 24ff\	.	.
.	24aa-JJ 24ff\	.	.
!!LO:PB:g=original
=159	=159	=159	=159
(>24D-LL 24DD-\	24cccLL 24cc\	12ccc/	.
24E-\	24gg- 24ee-\	.	.
24G-\	24gg- 24ee-\	6ryy	.
24B--\	24gg- 24ee-\	.	.
24c\	24gg- 24ee-\	.	.
24e-\JJ)	24gg-JJ 24ee-\	.	.
(>12g-^>\L	24gg-LL 24ee-\	6ryy	.
.	24gg- 24ee-\	.	.
12f\	24gg- 24ee-\	.	.
.	24gg- 24ee-\	.	.
12e-\J)	24ccc 24cc\	12ccc/	.
.	24gg-JJ 24ee-\	.	.
(>12e-^>\L	24cccLL 24cc\	12ccc/	.
.	24gg- 24ee-\	.	.
12d-\	24ddd- 24dd-\	12ddd-/	.
.	24gg- 24ee-\	.	.
12c\J)	24eee- 24ee-\	12eee-/	.
.	24gg-JJ 24ee-\	.	.
=160	=160	=160	=160
(<24DD-/LL	24ddd-LL 24dd-\	12ddd-/	.
24AA-/	24aa- 24ff\	.	.
24D-/	24aa- 24ff\	6ryy	.
24F/	24aa- 24ff\	.	.
24A-/	24aa- 24ff\	.	.
24d-/JJ)	24aa-JJ 24ff\	.	.
8f'>\	24aa-LL 24ff\	4ryy	.
.	24aa- 24ff\	.	.
.	24aa- 24ff\	.	.
8r	24aa- 24ff\	.	.
.	24aa- 24ff\	.	.
.	24aa-JJ 24ff\	.	.
8f 8d- 8A-'>\	24ddd-LL 24dd-\	12ddd-/	.
.	24aa- 24ff\	.	.
.	24aa- 24ff\	6ryy	.
8r	24aa- 24ff\	.	.
.	24aa- 24ff\	.	.
.	24aa-JJ 24ff\	.	.
!!LO:LB:g=original
=161	=161	=161	=161
(<24DD-/LL	24ddd-LL 24dd-\	12ddd-/	.
24AA-/	24ddd- 24aa-\	.	.
24D-/	24ddd- 24aa-\	6ryy	.
24F/	24ddd- 24aa-\	.	.
24A-/	24ddd- 24aa-\	.	.
24d-/JJ)	24ddd-JJ 24aa-\	.	.
8f'>\	24ddd-LL 24aa-\	4ryy	.
.	24ddd- 24aa-\	.	.
.	24ddd- 24aa-\	.	.
8r	24ddd- 24aa-\	.	.
.	24ddd- 24aa-\	.	.
.	24ddd-JJ 24aa-\	.	.
8f 8d- 8A-'>\	24fffLL 24ff\	12fff/	.
.	24ddd- 24aa-\	.	.
.	24ddd- 24aa-\	6ryy	.
8r	24ddd- 24aa-\	.	.
.	24ddd- 24aa-\	.	.
.	24ddd-JJ 24aa-\	.	.
=162	=162	=162	=162
*	*8va	*	*
(>24D-\LL	24aaa-LL 24aa-\	12aaa-/	.
24A-\	24fff 24ddd-\	.	.
24d-\	24fff 24ddd-\	6ryy	.
24f\JJ)	24fff 24ddd-\	.	.
*clefG2	*	*	*
(<24a-/LL	24fff 24ddd-\	.	.
24dd-/JJ)	24fffJJ 24ddd-\	.	.
8ff'>\	24fffLL 24ddd-\	4ryy	.
.	24fff 24ddd-\	.	.
.	24fff 24ddd-\	.	.
8r	24fff 24ddd-\	.	.
.	24fff 24ddd-\	.	.
.	24fffJJ 24ddd-\	.	.
8ff 8dd- 8a-'>\	24aaa-LL 24aa-\	12aaa-/	.
.	24fff 24ddd-\	.	.
.	24fff 24ddd-\	6ryy	.
8r	24fff 24ddd-\	.	.
.	24fff 24ddd-\	.	.
.	24fffJJ 24ddd-\	.	.
*clefF4	*	*	*
!!LO:LB:g=original
=163	=163	=163	=163
(>24D-\LL	24dddd-LL 24ddd-\	12dddd-/	.
24A-\	24aaa- 24fff\	.	.
24d-\	24aaa- 24fff\	6ryy	.
24f\JJ)	24aaa- 24fff\	.	.
*clefG2	*	*	*
(<24a-/LL	24aaa- 24fff\	.	.
24dd-/JJ)	24aaa-JJ 24fff\	.	.
8ff'>\	24aaa-LL 24fff\	4ryy	.
.	24aaa- 24fff\	.	.
.	24aaa- 24fff\	.	.
8r	24aaa- 24fff\	.	.
.	24aaa- 24fff\	.	.
.	24aaa-JJ 24fff\	.	.
*clefF4	*	*	*
8g-: 8B-: 8D-:'>\	24dddd-LL 24ddd-\	12dddd-/	.
.	24bbb- 24ggg-\	.	.
.	24bbb- 24ggg-\	6ryy	.
8r	24bbb- 24ggg-\	.	.
.	24bbb- 24ggg-\	.	.
.	24bbb-JJ 24ggg-\	.	.
=164	=164	=164	=164
(>24D-\LL	24dddd-LL 24ddd-\	12dddd-/	.
24A-\	24aaa- 24fff\	.	.
24d-\	24aaa- 24fff\	6ryy	.
24f\JJ)	24aaa- 24fff\	.	.
*clefG2	*	*	*
(<24a-/LL	24aaa- 24fff\	.	.
24dd-/JJ)	24aaa-JJ 24fff\	.	.
8ff'>\	24aaa-LL 24fff\	2ryy	.
.	24aaa- 24fff\	.	.
.	24aaa- 24fff\	.	.
8r	24aaa- 24fff\	.	.
.	24aaa- 24fff\	.	.
.	24aaa-JJ 24fff\	.	.
8dd-: 8a-: 8f: 8A-:'</	24aaa-LL 24fff\	.	.
.	24aaa- 24fff\	.	.
.	24aaa- 24fff\	.	.
8r	24aaa- 24fff\	.	.
.	24aaa- 24fff\	.	.
.	24aaa-JJ 24fff\	.	.
!!LO:LB:g=original
*	*v	*v	*
=165	=165	=165
8ff: 8a-: 8d-'<:/	24aaa-LL 24fff\	.
.	24aaa- 24fff\	.
.	24aaa- 24fff\	.
8r	24aaa- 24fff\	.
.	24aaa- 24fff\	.
.	24aaa-JJ 24fff\	.
8a-: 8d-: 8F'<:/	24aaa-LL 24fff\	.
.	24aaa- 24fff\	.
.	24aaa- 24fff\	.
8r	24aaa- 24fff\	.
.	24aaa- 24fff\	.
.	24aaa-JJ 24fff\	.
8dd-: 8f: 8A-'<:/	24aaa-LL 24fff\	.
.	24aaa- 24fff\	.
.	24aaa- 24fff\	.
8r	24aaa- 24fff\	.
.	24aaa- 24fff\	.
.	24aaa-JJ 24fff\	.
*clefF4	*	*
=166	=166	=166
8f: 8F: 8BB-'>:\	24aaa-LL 24fff\	.
.	24aaa- 24fff\	.
.	24aaa- 24fff\	.
8r	24aaa- 24fff\	.
.	24aaa- 24fff\	.
.	24aaa-JJ 24fff\	.
8a-: 8d-: 8F'>:\	24aaa-LL 24fff\	.
.	24aaa- 24fff\	.
.	24aaa- 24fff\	.
8r	24aaa- 24fff\	.
.	24aaa- 24fff\	.
.	24aaa-JJ 24fff\	.
8d-: 8F: 8AA-'>:\	24aaa-LL 24fff\	.
.	24aaa- 24fff\	.
.	24aaa- 24fff\	.
8r	24aaa- 24fff\	.
.	24aaa- 24fff\	.
.	24aaa-JJ 24fff\	.
!!LO:LB:g=original
=167	=167	=167
8f: 8A-: 8D-'>:\	24aaa-LL 24fff\	.
.	24aaa- 24fff\	.
.	24aaa- 24fff\	.
8r	24aaa- 24fff\	.
.	24aaa- 24fff\	.
.	24aaa-JJ 24fff\	.
8A-: 8D-: 8FF'>:\	24aaa-LL 24fff\	.
.	24aaa- 24fff\	.
.	24aaa- 24fff\	.
8r	24aaa- 24fff\	.
.	24aaa- 24fff\	.
.	24aaa-JJ 24fff\	.
8d-: 8F: 8AA-'>:\	24aaa-LL 24fff\	.
.	24aaa- 24fff\	.
.	24aaa- 24fff\	.
8r	24aaa- 24fff\	.
.	24aaa- 24fff\	.
.	24aaa-JJ 24fff\	.
=168	=168	=168
8F: 8AA-: 8DD-'<:/	24aaa-LL 24fff\	.
.	24aaa- 24fff\	.
.	24aaa- 24fff\	.
8r	24aaa- 24fff\	.
.	24aaa- 24fff\	.
.	24aaa-JJ 24fff\	.
8A-: 8D-: 8FF'<:/	24aaa-LL 24fff\	.
.	24aaa- 24fff\	.
.	24aaa- 24fff\	.
8r	24aaa- 24fff\	.
.	24aaa- 24fff\	.
.	24aaa-JJ 24fff\	.
8D-: 8FF: 8AAA-'<:/	24aaa-LL 24fff\	.
.	24aaa- 24fff\	.
.	24aaa- 24fff\	.
8r	24aaa- 24fff\	.
.	24aaa- 24fff\	.
.	24aaa-JJ 24fff\	.
!!LO:PB:g=original
=169	=169	=169
8F: 8AA-: 8DD-'<:/	24aaa-LL 24fff\	.
.	24aaa- 24fff\	.
.	24aaa- 24fff\	.
8r	24aaa- 24fff\	.
.	24aaa- 24fff\	.
.	24aaa-JJ 24fff\	.
8AA-: 8DD-: 8FFF'<:/	24aaa-LL 24fff\	.
.	24aaa- 24fff\	.
.	24aaa- 24fff\	.
8r	24aaa- 24fff\	.
.	24aaa- 24fff\	.
.	24aaa-JJ 24fff\	.
8D-: 8FF: 8AAA-'<:/	24aaa-LL 24fff\	.
.	24aaa- 24fff\	.
.	24aaa- 24fff\	.
8r	24aaa- 24fff\	.
.	24aaa- 24fff\	.
.	24aaa-JJ 24fff\	.
*tuplet	*tuplet	*
=170||	=170||	=170||
*>F	*>F	*
*M4/4	*M4/4	*
*met(c)	*met(c)	*
*tremolo	*	*
!LO:TX:a:Bi:t=trem.	!	!
16DDD-/LL	8dddd- 8ddd-\	.
16DD-/	.	.
*	*X8va	*
16DDD-/	4r	.
16DD-/	.	.
16DDD-/	.	.
16DD-/	.	.
*	*clefF4	*
16DDD-/	16d-LL 16D-\	.
16DD-/JJ	16d-JJ 16D-\	.
16DDD-/LL	4d- 4D-\	.
16DD-/	.	.
16DDD-/	.	.
16DD-/	.	.
16DDD-/	8r	.
16DD-/	.	.
16DDD-/	16d-LL 16D-\	.
*Xtremolo	*	*
!LO:TX:a:t=P:problem:w źrodle zmiana znaków przykluczowych przed łamaniem systemu	!	!
!	!LO:TX:a:t=P:problem:w źrodle zmiana znaków przykluczowych przed łamaniem systemu	!
16DD-/JJ	16d-JJ 16D-\	.
!!LO:LB:g=original
=171||	=171||	=171||
*>G	*>G	*
*k[cancel]	*k[cancel]	*
*k[f#c#g#d#a#e#]	*k[f#c#g#d#a#e#]	*
4CC# 4CCC#/	4c# 4C#\	.
4r	8r	.
*	*clefG2	*
!	!LO:TUP:b	!
.	24c#/LL	.
.	24c#/	.
.	24c#/JJ	.
4r	4.c#/	.
8r	.	.
*clefG2	*	*
!	!LO:TUP:b	!
8e#/	24c#/LL	.
.	24c#/	.
.	24c#/JJ	.
=172	=172	=172
!LO:TX:a:t=P:problem:diminuendolike accent	!	!
4.e#^</	4.c#/	.
!	!LO:TUP:b	!
8g# 8e#/	24c#/LL	.
.	24c#/	.
.	24c#/JJ	.
!LO:TX:a:t=P:problem:diminuendolike accent	!	!
4.g# 4.e#^</	4.c#/	.
!	!LO:TUP:b	!
8cc# 8g# 8e#/	24c#/LL	.
.	24c#/	.
.	24c#/JJ	.
=173	=173	=173
1cc# 1g# 1e#^<	1c#^<	.
=174	=174	=174
*^	*	*
8g#L 8e#'>/	2c#^<\	8gg#L 8ee#'>\	.
8bJ 8g#'>/	.	8bbJ 8gg#'>\	.
8dd# 8b'>/	.	8ddd# 8bb'>\	.
8r	.	8r	.
*clefF4	*	*	*
(<16B/LL	2C#\	(<16dd#LL 16b 16d#/	.
16A#/JJ)	.	16cc#JJ 16a# 16c#/)	.
4F#^>/	.	4a# 4f# 4A#^>/	.
8A#/	.	8cc# 8a# 8c#/	.
!!LO:LB:g=original
*v	*v	*	*
=175	=175	=175
8d#: 8An: 8F#: 8C#'>:\	8ff#: 8dd#: 8an: 8f#'>:\	.
*	*8va	*
!	!LO:TUP:a	!
8r	24cccc#\LL	.
.	24cccc#\	.
.	24cccc#\JJ	.
4r	8cccc#\	.
*	*X8va	*
.	8r	.
8d#:L 8A: 8F#: 8C#:\	8dd#:L 8a: 8f#:\	.
8d#:J 8A: 8F#: 8C#:\	8ff#:J 8dd#: 8a: 8f#:\	.
8d#: 8A: 8F#: 8C#:\	8aan: 8dd#: 8b#X: 8f#:\	.
8r	8r	.
=176	=176	=176
8c#: 8A#X: 8F#: 8C#':\	8ff##X: 8cc#: 8a#X: 8en':/	.
!	!LO:TUP:a	!
8r	24ccc#\LL	.
.	24ccc#\	.
.	24ccc#\JJ	.
4r	8ccc#\	.
.	8r	.
8c#:L 8A#X: 8F#: 8C#:\	8cc#:L 8a#: 8e:/	.
8c#:J 8A#X: 8F#: 8C#:\	8een:J 8cc#: 8a#: 8e:/	.
8c#: 8A#X: 8F#: 8C#:\	8ff##: 8cc#: 8a#: 8e:/	.
8r	8r	.
=177	=177	=177
8c#: 8B: 8G#: 8C#'>:\	8gg#: 8cc#: 8b: 8e#X'<:/	.
!	!LO:TUP:a	!
8r	24cc#\LL	.
.	24cc#\	.
.	24cc#\JJ	.
4r	8cc#\	.
.	8r	.
8c#:L 8B: 8G#: 8C#:\	8cc#:L 8b: 8e#:/	.
8c#:J 8B: 8G#: 8C#:\	8ee#:J 8cc#: 8b: 8e#:/	.
8c#: 8B: 8G#: 8C#:\	8gg#: 8cc#: 8b: 8e#:/	.
8r	8r	.
!!LO:LB:g=original
=178	=178	=178
*	*8va	*
8cc#:L 8b: 8g#: 8c#:/	8ccc#:L 8bb: 8ee#:/	.
8cc#:J 8b: 8g#: 8c#:/	8eee#:J 8ccc#: 8bb: 8ee#:/	.
8cc#: 8b: 8g#: 8c#:/	8ggg#: 8ccc#: 8bb: 8ee#:/	.
8r	8r	.
8cc#:L 8b: 8g#: 8c#:/	8eee#:L 8ccc#: 8bb: 8ee#:/	.
8cc#:J 8b: 8g#: 8c#:/	8ggg#:J 8ccc#: 8bb: 8ee#:/	.
8ee#: 8cc#: 8g#: 8c#:/	8cccc#: 8ggg#: 8eee#: 8gg#:\	.
*	*X8va	*
8r	8r	.
*clefF4	*	*
=179	=179	=179
1r	4.c#/	.
!	!LO:TUP:b	!
.	24c#/LL	.
.	24c#/	.
.	24c#/JJ	.
.	4.c#/	.
!	!LO:TUP:b	!
.	24c#/LL	.
.	24c#/	.
.	24c#/JJ	.
=180	=180	=180
1r	8c#/	.
!	!LO:TUP:b	!
.	24c#/LL	.
.	24c#/	.
.	24c#/JJ	.
.	8c#/	.
!	!LO:TUP:b	!
.	24c#/LL	.
.	24c#/	.
.	24c#/JJ	.
.	8c#/	.
!	!LO:TUP:b	!
.	24c#/LL	.
.	24c#/	.
.	24c#/JJ	.
.	8c#/	.
!	!LO:TUP:b	!
.	24c#/LL	.
.	24c#/	.
.	24c#/JJ	.
!!LO:LB:g=original
=181||	=181||	=181||
*	*^	*
*>H	*>H	*>H	*
*M2/4	*M2/4	*M2/4	*
8CC#\L	8e#/L	8c#\L	.
!	!	!LO:TUP:a	!
8BJ 8E# 8C#\	8g#/	24c#\L	.
.	.	24c#\	.
.	.	24c#\JJ	.
*	*	*Xtuplet	*
8GG#\L	8b/	8c#\L	.
8BJ 8E# 8C#\	8dd#/J	24c#\L	.
.	.	24c#\	.
.	.	24c#\JJ	.
=182	=182	=182	=182
8AA#\L	8cc#/	8c#\L	.
8A#J 8F# 8C#\	4a#/	24c#\L	.
.	.	24c#\	.
.	.	24c#\JJ	.
8FF#\L	.	8c#\L	.
8A#J 8F# 8C#\	8cc#/	24c#\L	.
.	.	24c#\	.
.	.	24c#\JJ	.
=183	=183	=183	=183
8GG#\L	8cc#/L	8c#\L	.
8BJ 8E# 8C#\	8b#X/	24c#\L	.
.	.	24c#\	.
.	.	24c#\JJ	.
8CC#\L	8bn/	8c#\L	.
8BJ 8E# 8C#\	8g#/J	24c#\L	.
.	.	24c#\	.
.	.	24c#\JJ	.
=184	=184	=184	=184
8FF#\L	8f#/	8c#\L	.
8A#J 8F# 8C#\	4a#/	24c#\L	.
.	.	24c#\	.
.	.	24c#\JJ	.
8AA#\L	.	8c#\L	.
8A#J 8F# 8C#\	16g#/LL	24c#\L	.
.	.	24c#\	.
.	16f#/JJ	.	.
.	.	24c#\JJ	.
!!LO:PB:g=original
=185	=185	=185	=185
8GG#\L	8e#/L	8c#\L	.
8BJ 8E# 8C#\	8g#/	24c#\L	.
.	.	24c#\	.
.	.	24c#\JJ	.
!LO:TX:a:t=P:problem:mixed beam	!	!	!
8CC#/L	8b/	8c#\L	.
8BJ 8E# 8C#\	8dd#/J	24c#\L	.
.	.	24c#\	.
.	.	24c#\JJ	.
=186	=186	=186	=186
8FF#\L	8cc#/	8c#\L	.
8A#J 8F# 8C#\	4a#/	24c#\L	.
.	.	24c#\	.
.	.	24c#\JJ	.
8AA#\L	.	8c#\L	.
8A#J 8F# 8C#\	8cc#/	24c#\L	.
.	.	24c#\	.
.	.	24c#\JJ	.
=187	=187	=187	=187
8GG#\L	8cc#/L	8c#\L	.
8BJ 8E# 8C#\	8b#X/	24c#\L	.
.	.	24c#\	.
.	.	24c#\JJ	.
!LO:TX:a:t=P:problem:mixed beam	!	!	!
8CC#/L	8bn/	8c#\L	.
8BJ 8E# 8C#\	8g#/J	24c#\L	.
.	.	24c#\	.
.	.	24c#\JJ	.
=188	=188	=188	=188
8FF#\L	8f#/L	8c#\L	.
8A# 8F# 8C#\	8a#/J	24c#\L	.
.	.	24c#\	.
.	.	24c#\JJ	.
8FF#\J	8f#/	8c#\	.
8r	8r	8ryy	.
*	*	*tuplet	*
*	*v	*v	*
=189||	=189||	=189||
*>I	*>I	*
8BBB/	8bL 8d# 8B/	.
8F#L 8D# 8BB\	8dd# 8f# 8d#/	.
8B 8F# 8D#\	8.ff# 8.dd# 8.f#/	.
8F#J 8D# 8BB\	.	.
.	16dd#Jk 16b 16d#/	.
!!LO:LB:g=original
=190	=190	=190
8FFF#/	8cc# 8a# 8c#/	.
8F#L 8C#\	4a# 4f# 4A#/	.
8c# 8F#\	.	.
8F#J 8C#\	8cc# 8a# 8c#/	.
=191	=191	=191
8CC#/	8cc#L 8a# 8c#/	.
8C#\L	8b#X 8g##X 8B#X/	.
!	!LO:N:n=2:acc=n#	!
8c#\	8.bn 8.g# 8.Bn/	.
8C#\J	.	.
.	16g#Jk 16G#/	.
=192	=192	=192
8FFF#/	8f# 8F#/	.
8F#L 8C#\	4a# 4f# 4c# 4A#/	.
8A# 8F#\	.	.
8F#J 8C#\	8cc# 8c#/	.
=193	=193	=193
*^	*	*
8BBB/	8ryy	8b 8d# 8B/	.
16F#/LL	4.F# 4.BB\	16bLL 16B/	.
16B/JJ	.	16dd#JJ 16d#/	.
16d#/LL	.	16ff#LL 16f#/	.
16B/	.	16dd# 16d#/	.
16d#/	.	16ff# 16f#/	.
16B/JJ	.	16dd#JJ 16d#/	.
=194	=194	=194	=194
16B/LL	4r	16dd#LL 16d#/	.
16A#/JJ	.	16cc#JJ 16c#/	.
4F#/	.	4a# 4f# 4A#/	.
.	4C# 4FF#\	.	.
8F#/	.	8cc# 8a# 8c#/	.
*v	*v	*	*
=195	=195	=195
8CC#/	8cc#L 8a# 8c#/	.
8C#\L	8b#X 8g##X 8B#X/	.
!	!LO:N:n=2:acc=n#	!
8c#\	8.bn 8.g#X 8.Bn/	.
8C#\J	.	.
.	16g#Jk 16G#/	.
!!LO:LB:g=original
=196	=196	=196
8C#L 8FF#/	8f#L 8F#/	.
8F# 8C#/	8a# 8f# 8c# 8A#/	.
8r	8f#J 8c# 8A#/	.
8C#J 8FF#/	8r	.
=197	=197	=197
8r	8bbL 8ff# 8dd# 8b\	.
8BBL 8BBB/	8ddd# 8bb 8ff# 8dd#\	.
8B 8F# 8D# 8BB/	8.fff# 8.ddd# 8.bb 8.ff#\	.
8f#J 8d# 8B 8F#/	.	.
.	16ddd#Jk 16dd#\	.
=198	=198	=198
8a# 8f# 8c# 8A#'>\	8ccc# 8cc#\	.
8FF#L 8FFF#/	4aa# 4ff# 4cc# 4a#\	.
8A# 8F# 8C#/	.	.
8c#J 8A# 8F#/	8ccc# 8aa# 8cc#\	.
=199	=199	=199
8g# 8e# 8c# 8G#'\	8ccc#L 8aa# 8cc#\	.
8C#L 8CC#/	8bb#X 8gg##X 8b#X\	.
!	!LO:N:n=2:acc=n#	!
8E# 8C# 8GG# 8EE#/	8.bbn 8.gg#X 8.bn\	.
8G#J 8E# 8C# 8GG#/	.	.
.	16gg#Jk 16g#\	.
=200	=200	=200
8A# 8F# 8C# 8AA#'>\	8ff# 8f#\	.
8FF#L 8FFF#/	4aa# 4ff# 4cc# 4a#\	.
8A# 8F# 8C#/	.	.
8c#J 8A# 8F#/	8ccc# 8aa# 8ff# 8cc#\	.
=201	=201	=201
8f# 8d# 8B 8F#'>\	8bb 8ff# 8dd#\	.
8BBL 8BBB/	16bbLL 16b\	.
.	16ddd#JJ 16dd#\	.
8B 8F# 8D# 8BB/	16fff#LL 16ff#\	.
.	16ddd# 16dd#\	.
8d#J 8B 8F# 8D#/	16fff# 16ff#\	.
.	16ddd#JJ 16dd#\	.
!!LO:LB:g=original
=202	=202	=202
8a# 8f# 8c# 8A#\	16ddd#LL 16dd#\	.
.	16ccc#JJ 16cc#\	.
8FF#L 8FFF#/	4aa# 4ff# 4cc# 4a#\	.
8A# 8F# 8C#/	.	.
8c#J 8A# 8F#/	8ccc# 8cc#\	.
=203	=203	=203
16C#LL 16CC#\	8ccc#L 8aa# 8cc#\	.
16c#JJ 16C#\	.	.
16c##XLL 16C##X\	8bb#X 8gg##X 8b#X\	.
16C##JJ 16CC##X\	.	.
!	!LO:N:n=2:acc=n#	!
16D#LL 16DD#\	8bbn 8gg#X 8bn\	.
16d#JJ 16D#\	.	.
16e#LL 16E#\	8gg#J 8cc# 8g#\	.
16E#JJ 16EE#\	.	.
=204	=204	=204
8F#L 8FF#/	8ff#L 8a# 8f#\	.
*	*8va	*
8FF#J 8FFF#/	8ffff#J 8cccc# 8aaa# 8fff#\	.
*	*X8va	*
4r	4r	.
=205!|:	=205!|:	=205!|:
*>J	*>J	*
*	*Xtuplet	*
.	(<16qqe#/LL	.
!LO:TX:a:t=P:problem:mixed beam	!	!
.	16qqd#/JJ)	.
8CC#/L	8c#'</	.
8b>J 8e#> 8c#>\	8ree	.
.	(>16qqee#/LL	.
.	16qqbb/	.
.	16qqddd#/JJ	.
8G#\L	8ccc#'>\)	.
8b>J 8e#> 8c#>\	8rgg	.
*	*8va	*
.	(16qqeee#/LL	.
.	16qqbbb/	.
.	16qqdddd#/JJ)	.
=206	=206	=206
8AA#\L	16cccc#'>\	.
*	*X8va	*
.	16f#'</	.
*	*8va	*
8f#J 8c# 8A#\	[>8ffff#\	.
*	*rscale:2	*
8FF#\L	56ffff#\LLL]	.
.	(>56eeee#\	.
.	56eeeen\	.
.	56dddd#\	.
.	56ddddn\	.
.	56cccc#\	.
.	56ccccn\	.
.	.	.
8f#J 8c# 8A#\	56bbb\	.
.	56aaa#\	.
.	56aaan\	.
.	56ggg#\	.
.	56gggn\)	.
*	*X8va	*
!!LO:LB:g=original
=207	=207	=207
.	(56fff#\	.
.	56eee#\	.
8BB\	56eeen\	.
.	56ddd#\	.
.	56dddn\	.
.	56ccc#\	.
.	56cccn\	.
.	56bb\	.
.	56aa#\	.
8a#J 8d# 8B\	56aan\	.
.	56gg#\	.
.	56ggn\	.
.	56ff#\	.
.	56ee#X\	.
.	56een\	.
!	!LO:N:vis=56	!
.	112dd#X\	.
!	!LO:N:vis=56	!
.	112ddn\JJJ)	.
*	*rscale:1	*
*	*rscale:4	*
8C#\L	(64cc#\LLLL	.
.	64dd#X\	.
.	64cc#\	.
.	64b#X\	.
.	64cc#\	.
.	64ee#X\	.
.	64gg#X\	.
.	64bbn\JJJJ)	.
*	*rscale:1	*
8bJ 8e# 8c#\	16ddd/	.
.	16rgg	.
.	16qccc/	.
=208	=208	=208
*	*tuplet	*
!	!LO:TUP:a	!
8FF#\L	(>24ccc#\LL	.
.	48bb#X\L	.
.	48ccc#\	.
.	48ddd#\	.
.	48ccc#\JJJ)	.
!	!LO:TUP:a	!
8f#J 8c# 8A#\	(>48aa#\LLL	.
.	48ff#\	.
.	48dd#\	.
.	48cc#\	.
.	48a#\	.
.	48f#\JJJ)	.
8AA#\L	8c#'</	.
8f#J 8c# 8A#\	8r	.
.	(<16qqe#/LL	.
.	16qqd#/JJ	.
*	*Xtuplet	*
=209	=209	=209
!LO:TX:a:t=P:problem:mixed beam	!	!
8GG#/L	8c#/)	.
8bJ 8e# 8c#\	8r	.
.	(>16qqee#/LL	.
.	16qqbb/	.
.	16qqddd#/JJ	.
!LO:TX:a:t=P:problem:mixed beam	!	!
8CC#/L	8ccc#'>\)	.
8bJ 8e# 8c#\	8r	.
*	*8va	*
.	(<16qqeee#/LL	.
.	16qqbbb/	.
.	16qqdddd#/JJ)	.
!!LO:PB:g=original
=210	=210	=210
8FF#\L	16cccc#\	.
*	*X8va	*
.	16f#/	.
*	*8va	*
8f#J 8c# 8A#\	[>8ffff#\	.
*	*rscale:2	*
8AA#\L	56ffff#\LLL]	.
.	(>56eeee#\	.
.	56eeeen\	.
.	56dddd#\	.
.	56ddddn\	.
.	56cccc#\	.
.	56ccccn\	.
8f#J 8c# 8A#\	56bbb\	.
.	56aaa#\	.
.	56aaan\	.
.	56ggg#\	.
.	56gggn\	.
*	*X8va	*
=211	=211	=211
.	56fff#\	.
.	56eee#\	.
8BB\L	56eeen\	.
.	56ddd#\	.
.	56dddn\	.
.	56ccc#\	.
.	56cccn\	.
.	56bb\	.
.	56aa#\	.
8g#J 8d# 8B\	56aan\	.
.	56gg#\	.
.	56ggn\	.
.	56ff#\	.
.	56ee#X\	.
.	56een\	.
!	!LO:N:vis=56	!
.	112dd#X\	.
!	!LO:N:vis=56	!
.	112ddn\JJJ)	.
*	*rscale:1	*
*	*rscale:4	*
8C#\L	(>64cc#\LLLL	.
.	64dd#X\	.
.	64cc#\	.
.	64b#X\	.
.	64cc#\	.
.	64ee#X\	.
.	64gg#X\	.
.	64bbn\JJJJ)	.
*	*rscale:1	*
8bJ 8e# 8c#\	16ddd\	.
*	*tuplet	*
!	!LO:TUP:a	!
.	(>48ccc\LLL	.
.	48ddd\	.
.	48ccc\JJJ)	.
!!LO:LB:g=original
=212	=212	=212
8FF#\L	16ff#'>\	.
!	!LO:TUP:a	!
.	(>48cc#\LLL	.
.	48dd#\	.
.	48cc#\JJJ)	.
8c#J 8A# 8F#\	16f#'</	.
*	*8va	*
!	!LO:TUP:a	!
.	(>48cccc#\LLL	.
.	48dddd#\	.
.	48cccc#\JJJ)	.
8FF# 8FFF#/	16ffff# 16fff#'>\	.
*	*X8va	*
.	16r	.
8r	8r	.
*	*Xtuplet	*
=213:|!	=213:|!	=213:|!
*>K	*>K	*
*	*8va	*
.	16qqffff#/LL	f
.	16qqfff#/JJ	.
8FF#/	2fff#TT\	.
*clefG2	*	*
8dd#: 8b: 8f#: 8d#^<:/	.	.
8ff#: 8dd#: 8b: 8f#^<:/	.	.
8dd#: 8b: 8f#: 8d#^<:/	.	.
=214	=214	=214
8cc#: 8a#: 8f#: 8c#^<:/	8fff#\L	<
*	*rscale:2	*
4a#: 4f#: 4c#: 4A#^<:/	(>56eee#\LL	.
.	56fff#\	.
.	56aaa#\	[
.	56ggg#\	.
.	56fff#\	.
.	56eee#\	.
*	*X8va	*
.	56ddd#\	.
.	56ccc#\	.
.	56bb\	>
.	56aa#\	.
.	56gg#\	.
.	56ff#\	.
.	56ee#\	.
.	56dd#\JJJ)	]
*	*rscale:1	*
8cc#: 8a#: 8f#: 8c#^<:/	8r	.
!!LO:LB:g=original
=215	=215	=215
*	*8va	*
.	16qqffff#/LL	f
.	16qqfff#/JJ	.
8f#: 8d#: 8B: 8F#:/	2fff#TT\	.
16bLL 16f# 16d# 16B/	.	.
16dd#JJ 16b 16f# 16d#/	.	.
16ff#LL 16dd# 16b 16f#/	.	.
16dd# 16b 16f# 16d#/	.	.
16ff# 16dd# 16b 16f#/	.	.
16dd#JJ 16b 16f# 16d#/	.	.
=216	=216	=216
(<16dd#LL 16b 16f# 16d#/	8fff#\L	.
16cc#JJ 16a# 16f# 16c#/)	.	.
*	*rscale:2	*
4a# 4f# 4c# 4A#^</	(>56eee#\LL	.
.	56fff#\	.
.	56aaa#\	.
.	56ggg#\	.
.	56fff#\	.
.	56eee#\	.
*	*X8va	*
.	56ddd#\	.
.	56ccc#\	.
.	56bb\	.
.	56aa#\	.
.	56gg#\	.
.	56ff#\	.
.	56ee#\	.
.	56dd#\JJJ)	.
*	*rscale:1	*
8cc# 8a# 8f# 8c#/	8r	.
.	(<16qqe#/LL	.
.	16qqd#/JJ	.
*clefF4	*	*
=217	=217	=217
!LO:TX:a:t=P:problem:mixed beam	!	!
8CC#/L	8c#'</)	.
8b>J 8e#> 8c#>\	8r	.
.	(>16qqee#/LL	.
.	16qqbb/	.
.	16qqddd#/JJ	.
8G#\L	8ccc#'>\)	.
8b>J 8e#> 8c#>\	8r	.
*	*8va	*
.	(<16qqeee#/LL	.
.	16qqbbb/	.
.	16qqdddd#/JJ)	.
!!LO:LB:g=original
=218	=218	=218
8FF#\L	16cccc#'>\	.
*	*X8va	*
.	16f#/	.
*	*8va	*
8f#J 8c# 8A#\	[>8ffff#\	.
*	*rscale:2	*
8AA#\L	56ffff#\LLL]	.
.	(>56eeee#\	.
.	56eeeen\	.
.	56dddd#\	.
.	56ddddn\	.
.	56cccc#\	.
.	56ccccn\	.
8f#J 8c# 8A#\	56bbb\	.
.	56aaa#\	.
.	56aaan\	.
.	56ggg#\	.
.	56gggn\	.
*	*X8va	*
=219	=219	=219
.	56fff#\	.
.	56eee#\	.
8BB\L	56eeen\	.
.	56ddd#\	.
.	56dddn\	.
.	56ccc#\	.
.	56cccn\	.
.	56bb\	.
.	56aa#\	.
8g#J 8d# 8B\	56aan\	.
.	56gg#\	.
.	56ggn\	.
.	56ff#\	.
.	56ee#X\	.
.	56een\	.
!	!LO:N:vis=56	!
.	112dd#X\	.
!	!LO:N:vis=56	!
.	112ddn\JJJ)	.
*	*rscale:1	*
*	*rscale:4	*
8C#\L	(>64cc#\LLLL	.
.	64dd#X\	.
.	64cc#\	.
.	64b#X\	.
.	64cc#\	.
.	64ee#X\	.
.	64gg#X\	.
.	64bbn\JJJJ)	.
*	*rscale:1	*
8bJ 8e# 8c#\	16ddd/	.
.	16rgg	.
.	8qccc#/	.
!!LO:LB:g=original
=220	=220	=220
*	*tuplet	*
!	!LO:TUP:a	!
8FF#\L	(>24ccc#\LL	.
.	48bb#X\L	.
.	48ccc#\	.
.	48ddd#\	.
.	48ccc#\JJJ)	.
!	!LO:TUP:a	!
8f#J 8c# 8A#\	(>48aa#\LLL	.
.	48ff#\	.
.	48dd#\	.
.	48cc#\	.
.	48a#\	.
.	48f#\JJJ)	.
8AA#\L	8c#'</	.
8f#J 8c# 8A#\	8r	.
.	(<16qqe#/LL	.
.	16qqd#/JJ	.
*	*Xtuplet	*
=221	=221	=221
*^	*	*
!LO:TX:a:t=P:problem:mixed beam	!	!	!
8GG#/L	4ryy	8c#'</)	.
8b>J 8e#> 8c#>\	.	8rgg	.
.	.	(>16qqee#/LL	.
.	.	16qqbb/	.
(>8qC#/	.	16qqddd#/JJ	.
!LO:TX:a:t=P:problem:mixed beam	!	!	!
8B^>/L)	4B/	8ccc#'>\)	.
8b>J 8e#> 8c#>\	.	8rgg	.
*	*	*8va	*
.	.	(<16qqeee#/LL	.
.	.	16qqbbb/	.
.	.	16qqdddd#/JJ)	.
=222	=222	=222	=222
8qFF#/	.	.	.
8A#^>\L	4A#/	16cccc#'>\	.
*	*	*X8va	*
.	.	16f#/	.
*	*	*8va	*
8f#J 8c#\	.	[>8ffff#\	.
*	*	*rscale:2	*
8AA#\L	4ryy	56ffff#\LLL]	.
.	.	(>56eeee#\	.
.	.	56eeeen\	.
.	.	56dddd#\	.
.	.	56ddddn\	.
.	.	56cccc#\	.
.	.	56ccccn\	.
8f#J 8c# 8A#\	.	56bbb\	.
.	.	56aaa#\	.
.	.	56aaan\	.
.	.	56ggg#\	.
.	.	56gggn\	.
*	*	*X8va	*
!!LO:PB:g=original
*v	*v	*	*
=223	=223	=223
.	56fff#\	.
.	56eee#\	.
8BB\L	56eeen\	.
.	56ddd#\	.
.	56dddn\	.
.	56ccc#\	.
.	56cccn\	.
.	56bb\	.
.	56aa#\	.
8g#J 8d# 8B\	56aan\	.
.	56gg#\	.
.	56ggn\	.
.	56ff#\	.
.	56ee#X\	.
.	56een\	.
!	!LO:N:vis=56	!
.	112dd#X\	.
!	!LO:N:vis=56	!
.	112ddn\JJJ)	.
*	*rscale:1	*
*	*rscale:4	*
8C#\L	(>64cc#\LLLL	.
.	64dd#X\	.
.	64cc#\	.
.	64b#X\	.
.	64cc#\	.
.	64ee#X\	.
.	64gg#X\	.
.	64bbn\JJJJ)	.
*	*rscale:1	*
8bJ 8e# 8c#\	16ddd/	.
.	16rgg	.
.	(<16qqccc#/LL	.
.	16qqddd#/	.
.	16qqccc#/JJ)	.
=224	=224	=224
8FF#\L	16fff# 16ff#'>\	.
.	16r	.
.	(<16qqcc#/LL	.
.	16qqdd#/	.
.	16qqcc#/JJ)	.
8c#J 8A# 8F#\	16ff# 16f#'>\	.
.	16r	.
*	*8va	*
.	(<16qqcccc#/LL	.
.	16qqdddd#/	.
.	16qqcccc#/JJ)	.
8FF# 8FFF#/	8ffff# 8fff#'>\	.
*	*X8va	*
8r	8r	.
!!LO:LB:g=original
=225||	=225||	=225||
!!!OMD: Presto.
*>L	*>L	*
!	!	!LO:DY:b:rj
8C# 8CC#/	16ccc#LL 16gg# 16ee# 16cc#\	ff
.	16ddd# 16dd#\	.
8e# 8B 8G# 8C#\	16eee# 16ee#\	.
.	16fff#JJ 16ff#\	.
*	*8va	*
8C# 8CC#/	16ggg#LL 16gg#\	.
.	16aaa# 16aa#\	.
8e# 8B 8G# 8C#\	16bbb 16bb\	.
.	16cccc#JJ 16ccc#\	.
=226	=226	=226
8C# 8CC#/	16dddd#LL 16ddd#\	.
.	16cccc# 16ccc#\	.
8f# 8c# 8A#\	16ffff# 16fff#\	.
.	16eeee#JJ 16eee#\	.
8C# 8CC#/	16dddd#LL 16ddd#\	.
.	16cccc# 16ccc#\	.
8f# 8c# 8A#\	16bbb 16bb\	.
.	16aaa#JJ 16aa#\	.
=227	=227	=227
8C# 8CC#/	16cccc#LL 16ccc#\	.
.	16bbb#X 16bb#X\	.
8e# 8B 8G# 8C#\	16dddd# 16ddd#\	.
.	16cccc#JJ 16ccc#\	.
8C# 8CC#/	16bbbnLL 16bbn\	.
.	16aaa# 16aa#\	.
8e# 8B 8G# 8C#\	16bbb 16bb\	.
.	16ggg#JJ 16gg#\	.
!!LO:LB:g=original
=228	=228	=228
8C# 8CC#/	16fff#LL 16ff#\	.
.	16ggg# 16gg#\	.
8f# 8c# 8A#\	16aaa# 16aa#\	.
.	16ggg#JJ 16gg#\	.
8C# 8CC#/	16fff#LL 16ff#/	.
.	16eee# 16ee#/	.
8f# 8c# 8A#\	16fff# 16ff#/	.
.	16ddd#JJ 16dd#/	.
=229	=229	=229
8C# 8CC#/	16ccc#LL 16gg# 16ee# 16cc#/	.
.	16ddd# 16dd#/	.
8e# 8c# 8G#\	16eee# 16ee#/	.
.	16fff#JJ 16ff#/	.
8BB 8BBB/	16ggg#LL 16gg#\	.
.	16aaa# 16aa#\	.
8e# 8c# 8B 8G#\	16bbb 16bb\	.
.	16bbb#XJJ 16bb#X\	.
=230	=230	=230
8AA# 8AAA#/	16dddd#LL 16ddd#\	.
.	16cccc# 16ccc#\	.
8f# 8c# 8A# 8F#\	16ffff# 16fff#\	.
.	16cccc##XJJ 16ccc##X\	.
8BB 8BBB/	16eeee#LL 16eee#\	.
.	16dddd# 16ddd#\	.
8f# 8d# 8B 8G#\	16bbb 16bb\	.
.	16ggg#JJ 16gg#\	.
!!LO:LB:g=original
=231	=231	=231
8C# 8CC#/	16dddd#LL 16ddd#\	.
.	16cccc# 16ccc#\	.
8f# 8c# 8A#\	16aaa# 16aa#\	.
.	16fff#JJ 16ff#\	.
*	*X8va	*
8C# 8CC#/	16bb#XLL 16b#X\	.
.	16ccc# 16cc#\	.
8e# 8B 8G# 8C#;>\	16.aaa# 16.ccc# 16.aa#;>\	.
.	32ggg#JJk 32bbn 32gg#\	.
=232	=232	=232
16F#LL 16FF#\	16fff#:LL 16ccc#: 16aa#: 16ff#:\	.
16B#X 16BB#X\	16bb#X 16b#X\	.
16c# 16C#\	16ccc# 16cc#\	.
16G##XJJ 16GG##X\	16gg##XJJ 16g##X\	.
16A#LL 16AA#/	16aa#LL 16a#/	.
16E# 16EE#/	16ee# 16e#/	.
16F# 16FF#/	16ff# 16f#/	.
16D#JJ 16DD#/	16dd#JJ 16d#/	.
=233	=233	=233
8C# 8CC#/	8cc# 8c#/	.
8e#:L 8B: 8G#: 8C#:\	8ccc#:L 8bb: 8gg#: 8cc#'>~>:\	.
8e#: 8B: 8G#: 8C#:\	8ddd#: 8bb: 8gg#: 8dd#'>~>:\	.
8e#:J 8B: 8G#: 8C#:\	8eee#:J 8bb: 8gg#: 8ee#'>~>:\	.
=234	=234	=234
16A#:LL 16C#: 16FF#:\	16fff#:LL 16ccc#: 16aa#: 16ff#:\	.
16B#X 16BB#X\	16bb#X 16b#X\	.
16c# 16C#\	16ccc# 16cc#\	.
16G##XJJ 16GG##X\	16gg##XJJ 16g##X\	.
16A#LL 16AA#/	16aa#LL 16a#/	.
16E# 16EE#/	16ee# 16e#/	.
16F# 16FF#/	16ff# 16f#/	.
16BB#JJ 16BBB#X/	16b#JJ 16B#X/	.
!!LO:LB:g=original
=235	=235	=235
8C# 8CC#/	8cc# 8c#/	.
8e#:L 8B: 8G#: 8C#:\	8ccc#:L 8bb: 8gg#: 8cc#'>~>:\	.
8e#: 8B: 8G#: 8C#:\	8ddd#: 8bb: 8gg#: 8dd#'>~>:\	.
8e#:J 8B: 8G#: 8C#:\	8eee#:J 8bb: 8gg#: 8ee#'>~>:\	.
=236	=236	=236
8.A#: 8.C#: 8.FF#:/	8.fff#: 8.ccc#: 8.aa#: 8.ff#:\	.
16FF# 16FFF#/	16aaa# 16fff# 16ccc# 16aa#\	.
8.FF# 8.FFF#/	8.aaa# 8.fff# 8.ccc# 8.aa#\	.
16F# 16FF#/	16fff# 16ccc# 16aa# 16ff#\	.
=237	=237	=237
8F# 8FF#/	8fff# 8ccc# 8aa# 8ff#\	.
16r	16r	.
16f# 16F#\	16fff# 16ff#\	.
8c#L 8C#\	8ccc#L 8cc#\	.
8A#J 8AA#\	8aa#J 8a#\	.
=238	=238	=238
4F# 4FF#/	4ff# 4f#\	.
8.FF# 8.FFF#/	8.aaa# 8.fff# 8.ccc# 8.aa#\	.
16F# 16C# 16FF#/	16ff# 16cc# 16a# 16f#\	.
=239	=239	=239
4F# 4C# 4FF#/	4ff# 4cc# 4a# 4f#\	.
8.FF# 8.FFF#/	8.fff# 8.ccc# 8.aa# 8.ff#\	.
16F# 16C# 16FF#/	16f# 16A#/	.
=240	=240	=240
!	!LO:TX:b:Bi:t=Fine.	!
2F# 2C# 2FF#/	2f# 2A#/	.
==	==	==
*-	*-	*-
!!title: @{OTL};
!!!RDF**kern: > = above
!!!RDF**kern: < = below
!!!RDF**dynam: > = "dim.", fontstyle= "bold-italic"
!!!RDF**dynam: < = "cresc.", fontstyle= "bold-italic"
!!!RDF**kern: | = vertical stroke
!!!RDF**kern: N = linked
!!!RDF**kern: i = editorial accidental
!!!RDF**kern: l = terminal long
!!!ENC: Berenika Jozajtis
!!!END: 2022-08-17
!!!EED: Wojciech Jakubiak-Danek
!!!EST: 2022-09-15
!!!URL-scan:
!!!ONB-nifc: !!!YEC: Copyright 2022 Narodowy Instytut Fryderyka Chopina (https://polishscores.org)
!!!YEM: License CC-BY-4.0 (https://creativecommons.org/licenses/by/4.0)
